!!!!SEGMENT: pl-wumfc--n28541--001_moniuszko-stanislaw--verbum-nobile-uwertura.krn
!!!cenid: 18xx:4207
!!!COM: Moniuszko, Stanisław
!!!COM-rismID: pe30008351
!!!CDT: 1819/05/05-1872/06/04
!!!CNT: Polish
!!!GTL: Verbum nobile
!!!OTL: Uwertura
!!!PDT:
!!!AGN:
!!!SMS-siglum: PL-Wumfc
!!!SMS-shelfmark: N28541
!!!SMS-variant:
!!!SMS-altvar:
!!!SMS-shelfwork: 001 G
!!!NIFC-rismSourceID: 1001152972
!!!NIFC-rismChildID: 1001152972
!!!NIFC-islandoraID: pl-wumfc:3225
!!!URL-pdf-islandora: https://repozytorium.nifc.pl/islandora/object/pl-wumfc:3225/datastream/PDF/view
!!!URL-scan: https://polish.musicsources.pl/pl/lokalizacje/galeria/druki-muzyczne/12012/3 @EN{Scan on Polish Music Sources Website} @PL{Skany w portalu Dziedzictwo Muzyki Polskiej w otwartym dostępie}
!!!ONB-nifc: Skany 0003-0010
!!!OMD: Allegro.
!!!AIN: 2 piano
!!!key: D
**kern	**kern	**fing	**dynam
*part2	*part1	*	*part1
*staff2	*staff1	*	*
*I"Piano.	*I"Piano.	*	*
*I'	*I'	*	*
*Ipiano	*Ipiano	*	*
*ICklav	*ICklav	*	*
*clefF4	*clefG2	*	*
*k[f#c#]	*k[f#c#]	*	*
*D:	*D:	*	*
*M2/4	*M2/4	*	*
=1	=1	=1	=1
8D 8DD/	8dd 8a 8f# 8d/	.	fp
.	8qee/	.	.
8dL 8A 8F# 8D\	16dd\LL	.	.
.	16cc#\JJ	.	.
8d 8A 8F# 8D\	16dd\LL	.	.
.	16ee\	.	.
8dJ 8A 8F# 8D\	16ff#\	.	.
.	16gg\JJ	.	.
=2	=2	=2	=2
8dL 8A 8F# 8D\	16aa\LL	.	<
.	16ff#\	.	.
8dJ 8A 8D\	16gg\	.	.
.	16aa\JJ	.	.
8dL 8G 8D\	16bb\LL	.	.
.	16ccc#\	.	.
8dJ 8B 8G 8D\	16ddd\	.	.
.	16eee\JJ	.	[[
=3	=3	=3	=3
8dL 8A 8D\	4fff#\	.	.
.	.	.	>
8dJ 8A 8F# 8D\	.	.	.
8AL 8G 8D\	16eee\LL	.	.
.	16ddd\	.	.
8AJ 8G 8D\	16ccc#\	.	.
.	16eee\JJ	.	]]
=4	=4	=4	=4
8AL 8F# 8D\	8ddd'\L	.	.
8dJ 8A 8F#\	8aa'\J	.	.
8dL 8G\	16bb\LL	.	.
.	16aa\	.	.
8dJ 8B 8G\	16gg\	.	.
.	16ddd\JJ	.	.
!!LO:LB:g=original
=5	=5	=5	=5
8dL 8A 8F#'\	4aa^^\	.	.
8dJ 8A 8F#'\	.	.	.
8BL 8G 8E'\	16gg\LL	.	.
.	16ff#\	.	.
8BJ 8G 8E'\	16ee\	.	.
.	16bb\JJ	.	.
=6	=6	=6	=6
8BL 8F# 8D\	4ff#^^\	.	.
8BJ 8F# 8D\	.	.	.
8A#XL 8F# 8C#\	16ff#\LL	.	.
.	16gg\	.	.
8A#J 8F# 8C#\	16ff#\	.	.
.	16ee\JJ	.	.
=7	=7	=7	=7
8BL 8F# 8BB\	16dd\LL	.	.
.	16cc#\	.	.
8BJ 8F# 8BB\	16b\	.	.
.	16cc#\JJ	.	.
8BL 8E\	16dd\LL	.	.
.	16ee\	.	.
8dJ 8B 8E\	16ff#\	.	.
.	16gg#X\JJ	.	.
=8	=8	=8	=8
8c#L 8A'\	8aa'\L	.	.
8eJ 8c#'\	8a'\J	.	.
*clefG2	*	*	*
8qg#X/	8qggg#X 8qgg#X/	.	sf
8a'/L	8aaaL 8aa'\	.	.
8A'/J	8aa'\J	.	.
*clefF4	*	*	*
!!LO:LB:g=original
=9	=9	=9	=9
8D 8DD/	8dd 8a 8f# 8d/	.	fp
.	8qee/	.	.
8dL 8A 8F# 8D'\	16dd\LL	.	.
.	16cc#\JJ	.	.
8d 8A 8F# 8D'\	16dd\LL	.	.
.	16ee\	.	.
8dJ 8A 8F# 8D'\	16ff#\	.	.
.	16gg\JJ	.	.
=10	=10	=10	=10
8dL 8A 8F# 8D\	16aa\LL	.	<
.	16ff#\	.	.
8dJ 8A 8D\	16gg\	.	.
.	16aa\JJ	.	.
8BL 8G#X 8D\	16bb\LL	.	.
.	16ccc#\	.	.
8dJ 8B 8Gn 8D\	16ddd\	.	.
.	16eee\JJ	.	[[
=11	=11	=11	=11
8dL 8A 8F# 8D\	4fff#\	.	.
.	.	.	>
8dJ 8A 8F# 8D\	.	.	.
8BL 8G 8D\	16eee\LL	.	.
.	16ddd\	.	.
8AJ 8G 8D\	16ccc#\	.	.
.	16eee\JJ	.	]]
=12	=12	=12	=12
8AL 8F# 8D\	8ddd'\L	.	.
8dJ 8A 8F#\	8aa'\J	.	.
8dL 8G\	16bb\LL	.	.
.	16aa\	.	.
8dJ 8B 8G\	16gg\	.	.
.	16ddd\JJ	.	.
!!LO:LB:g=original
=13	=13	=13	=13
8dL 8A 8G\	4aa^^\	.	.
8dJ 8A 8F#\	.	.	.
8eL 8B 8E\	16gg\LL	.	.
.	16ff#\	.	.
8BJ 8G 8E\	16ee\	.	.
.	16bb\JJ	.	.
=14	=14	=14	=14
8BL 8F# 8E\	4ff#^^\	.	.
8BJ 8F# 8D\	.	.	.
8BL 8F# 8C#\	16ff#\LL	.	.
.	16gg\	.	.
8A#XJ 8F# 8C#\	16ff#\	.	.
.	16ee\JJ	.	.
=15	=15	=15	=15
8BL 8F# 8BB\	16dd\LL	.	.
.	16cc#\	.	.
8BJ 8F# 8BB\	16b\	.	.
.	16cc#\JJ	.	.
8BL 8G#X\	16dd\LL	.	.
.	16cc#\	.	.
8e#XJ 8B 8G#\	16dd\	.	.
.	16b\JJ	.	.
=16	=16	=16	=16
8f#L 8d 8A\	16a\LL	.	.
.	16dd\	.	.
8f#J 8d 8A\	16ff#\	.	.
.	16aa\JJ	.	.
8eL 8c# 8A\	16aa\LL	.	.
.	16gg\	.	.
.	8qgg/	.	.
8gJ 8c# 8A\	16ff#\	.	.
.	16ee\JJ	.	.
=17	=17	=17	=17
8f# 8d\	8dd\	.	.
8r	8r	.	.
*	*ped	*	*
8.DL 8.AA 8.DD/	8.dddL 8.aa 8.ff# 8.dd\	.	ff
16DJk 16AA 16DD/	16dddJk 16aa 16ff# 16dd\	.	.
!!LO:PB:g=original
=18	=18	=18	=18
4..D 4..AA 4..DD^^/	4..ddd 4..aa 4..ff# 4..dd\	.	.
16d 16A 16F#\	16dd 16a\	.	.
=19	=19	=19	=19
*	*Xped	*	*
8d 8A 8F#\	8dd 8a\	.	.
8r	8r	.	.
8.AL 8.F#\	8.dd\L	.	mf
16AJk 16F#\	16dd\Jk	.	.
=20	=20	=20	=20
4B 4G\	4ee 4dd\	.	.
(8.E^\L	8.ggL 8.dd\	.	.
32F#\LL	16ff#Jk 16dd\	.	.
32G\JJJ	.	.	.
=21	=21	=21	=21
8A\)	8ee 8cc#\	.	.
8r	8r	.	.
*	*ped	*	*
8.DL 8.AA 8.DD/	8.dddL 8.aa 8.ff# 8.dd\	.	ff
16DJk 16AA 16DD/	16dddJk 16aa 16ff# 16dd\	.	.
=22	=22	=22	=22
4..D 4..AA 4..DD^^/	4..ddd 4..aa 4..ff# 4..dd^^\	.	.
16d 16A 16F#\	16dd 16a\	.	.
=23	=23	=23	=23
*	*Xped	*	*
8d 8A 8F#\	8dd 8a\	.	.
8r	8r	.	.
8.AL 8.F#\	8.dd\L	.	mf
16AJk 16F#\	16dd\Jk	.	.
!!LO:LB:g=original
=24	=24	=24	=24
4B 4G\	4ee 4dd\	.	.
(8.E^\L	8.ggL 8.ee\	.	.
32F#\LL	16ff#Jk 16dd\	.	.
32G\JJJ	.	.	.
=25	=25	=25	=25
*	*Xped	*	*
8A\)	8ee 8cc#\	.	.
8r	8r	.	.
8eL 8c# 8A'\	16ee\LL	.	p
.	16ff#\	.	.
8eJ 8c# 8A'\	16ee\	.	.
.	16dd#X\JJ	.	.
=26	=26	=26	=26
8eL 8d 8G#X'\	16ee\LL	.	.
.	16ff#\	.	.
8e 8d 8B'\	16gg#X\	.	.
.	16aa\JJ	.	.
8e 8d 8G#'\	16bb\LL	.	.
.	16ccc#\	.	.
8dJ 8G# 8E'\	16ddd\	.	.
.	16eee\JJ	.	.
=27	=27	=27	=27
8c#L 8A\	8ccc#'\L	.	.
8eJ 8c# 8A\	8aa'\J	.	.
8d#XL 8A 8F#\	16bb\LL	.	.
.	16aa\	.	.
8d#J 8A 8F#\	16gg#X\	.	.
.	16aa\JJ	.	.
=28	=28	=28	=28
8dnL 8A 8Fn\	16bb\LL	.	.
.	16aa\	.	.
8dJ 8A 8F\	16gg#X\	.	.
.	16aa\JJ	.	.
8dL 8G#X 8E\	16bb\LL	.	.
.	16aa\	.	.
8dJ 8G# 8E\	16bb\	.	.
.	16ccc#\JJ	.	.
!!LO:LB:g=original
=29	=29	=29	=29
8c#L 8A\	(8.aa^\L	.	.
8c#J 8A\	.	.	.
.	32gg#X\LL	.	.
.	32ff#\JJJ	.	.
8eL 8c# 8A\	16ee\LL)	.	.
.	16ff#\	.	.
8eJ 8c# 8A\	16gg#\	.	.
.	16aa\JJ	.	.
=30	=30	=30	=30
8eL 8B 8A\	16bb\LL	.	.
.	16aa\	.	.
8eJ 8B 8A\	16bb\	.	.
.	16cccn\JJ	.	.
8fnL 8B 8A\	16ddd\LL	.	.
.	16ccc\	.	.
8fJ 8B 8A\	16ddd\	.	.
.	16eee\JJ	.	.
=31	=31	=31	=31
8fnL 8cn 8A\	8cccn'\L	.	.
8eJ 8c 8G\	8aa'\J	.	.
8d#XL 8A 8F#X\	16bb\LL	.	.
.	16aa\	.	.
8dnJ 8A 8Fn\	16gg#X\	.	.
.	16aa\JJ	.	.
=32	=32	=32	=32
8dL 8A 8E\	16bb\LL	.	.
.	16aa\	.	.
8cnJ 8A 8E\	16gg#X\	.	.
.	16aa\JJ	.	.
8BL 8Fn 8D\	16bb\LL	.	.
.	16ddd\	.	.
8AJ 8F 8D\	16cccn\	.	.
.	16bb\JJ	.	.
=33	=33	=33	=33
8e 8A 8Cn\	8aa\	.	.
8r	8r	.	.
*	*ped	*	*
8.CL 8.GG 8.CCn/	8.cccnL 8.gg 8.ee 8.ccn\	.	ff
16CJk 16GG 16CC/	16cccJk 16gg 16ee 16cc\	.	.
!!LO:LB:g=original
=34	=34	=34	=34
4..Cn 4..GG 4..CCn^^/	4..cccn 4..gg 4..ee 4..ccn^^\	.	.
16e 16G 16E\	16cc 16g/	.	.
=35	=35	=35	=35
*	*Xped	*	*
8e 8G 8E\	8ccn 8g/	.	.
8r	8r	.	.
8.cnL 8.E\	8.ccL 8.g/	.	mf
16cJk 16E\	16ccJk 16g/	.	.
=36	=36	=36	=36
4cn 4Fn\	4dd 4ccn 4a\	.	.
(8.D^\L	8.ffnL 8.dd^\	.	.
32E\LL	16eeJk 16cc\	.	.
32F\JJJ	.	.	.
=37	=37	=37	=37
8G\)	8dd 8b\	.	.
8r	8r	.	.
*	*ped	*	*
8.GL 8.E 8.BB 8.GG/	8.eeeL 8.bb 8.ee\	.	ff
16GJk 16E 16BB 16GG/	16eeeJk 16bb 16ee\	.	.
=38	=38	=38	=38
4..G 4..E 4..BB 4..GG^^/	4..eee 4..bb 4..ee^^\	.	.
16e 16B 16G\	16ee 16b\	.	.
=39	=39	=39	=39
*	*Xped	*	*
8e 8B 8G\	8ee 8b\	.	.
8r	8r	.	.
8.eL 8.G\	8.eeL 8.b\	.	mf
16eJk 16G\	16eeJk 16b\	.	.
!!LO:LB:g=original
=40	=40	=40	=40
4e 4A\	4ff# 4ccn\	.	.
(8.F#^\L	8.aaL 8.ff#^\	.	.
32G\LL	16ggJk 16ee\	.	.
32A\JJJ	.	.	.
=41	=41	=41	=41
*	*	*	*^
8B\)	8ff# 8dd#X\	.	.	.
8r	8r	.	.	.
!	!	!	!LO:DY:b:rj	!LO:DY:b=2
16cn^\LL	8ff#L 8dd# 8a'\	.	p	mf
16B\	.	.	.	.
16A\	8ff#J 8dd# 8a'\	.	.	.
16B\JJ	.	.	.	.
*	*	*	*v	*v
=42	=42	=42	=42
16cn^\LL	8ff#XL 8dd#X 8a'\	.	.
16B\	.	.	.
16A\	8ff# 8dd# 8a'\	.	.
16B\JJ	.	.	.
16c\LL	8ff# 8dd# 8a'\	.	.
16B\	.	.	.
16A\	8ff#J 8dd# 8a'\	.	.
16B\JJ	.	.	.
=43	=43	=43	=43
*^	*	*	*
!	!	!	!	!LO:DY:b=2
8cn'\L	4ryy	8ff# 8dd#X 8a'\	.	sf
8Cn'\J	.	8r	.	.
*clefG2	*	*	*	*
8a#XL 8e'/	(4cn\	16gg'\LL	.	pp
.	.	16ff#'\	.	.
8a#J 8e'/	.	16ee'\	.	.
.	.	16ff#'\JJ	.	.
!!LO:PB:g=original
=44	=44	=44	=44	=44
8bL 8e'/	4B\	16gg'\LL	.	.
.	.	16ff#'\	.	.
8bJ 8e'/	.	16ee'\	.	.
.	.	16ff#'\JJ	.	.
8gL 8c#X'/	4A#X\	16gg'\LL	.	.
.	.	16ff#'\	.	.
8gJ 8c#'/	.	16gg'\	.	.
.	.	16ee'\JJ	.	.
=45	=45	=45	=45	=45
*	*	*	*	*^
8gL 8e'/	8B\)	8bb'\L	.	sf	.
8gJ 8e'>/	8ryy	8b'\J	.	.	.
*clefF4	*	*	*	*	*
!	!	!	!	!LO:DY:b:rj	!LO:DY:b=2
16cn^\LL	4ryy	8ff#L 8dd#X 8a'\	.	p	mf
16B\	.	.	.	.	.
16A\	.	8ff#J 8dd# 8a'\	.	.	.
16B\JJ	.	.	.	.	.
*v	*v	*	*	*	*
*	*	*	*v	*v
=46	=46	=46	=46
16cn^\LL	8ff#L 8dd#X 8a'\	.	.
16B\	.	.	.
16A\	8ff# 8dd# 8a'\	.	.
16B\JJ	.	.	.
16c^\LL	8ff# 8dd# 8a'\	.	.
16B\	.	.	.
16A\	8ff#J 8dd# 8a'\	.	.
16B\JJ	.	.	.
=47	=47	=47	=47
*^	*	*	*
!	!	!	!	!LO:DY:b=2
8cn'\L	4rEEyy	8ff# 8dd#X 8a'\	.	sf
8Cn'\J	.	8r	.	.
*clefG2	*	*	*	*
8aL 8e'/	(4cn\	16gg'\LL	.	p
.	.	16ff#'\	.	.
8aJ 8e'/	.	16ee'\	.	.
.	.	16ff#'\JJ	.	.
=48	=48	=48	=48	=48
8bL 8e'/	4B\	16gg'\LL	.	.
.	.	16ff#'\	.	.
8bJ 8e'/	.	16ee'\	.	.
.	.	16ff#'\JJ	.	.
.	.	8qaa/	.	.
8gL 8c#X'/	4A#X\	16gg'\LL	.	.
.	.	16ff#'\	.	.
8gJ 8c#'/	.	16gg'\	.	.
.	.	16ee'\JJ	.	.
*v	*v	*	*	*
!!LO:LB:g=original
=49	=49	=49	=49
8f# 8d#X 8B/)	8bb\	.	.
8r	16b\LL	.	.
.	16cc#X\JJ	.	.
8r	16dd#X\LL	.	.
.	16ee\	.	.
8a 8e 8cn'/	16ff#\	.	.
.	16gg\JJ	.	.
=50	=50	=50	=50
8a 8f# 8d#X 8B/	8aa\	.	.
8r	16b\LL	.	.
.	16cc#X\JJ	.	.
8r	16dd#X\LL	.	.
.	16ee\	.	.
8a 8e 8cn/	16ff#\	.	.
.	16gg\JJ	.	.
=51	=51	=51	=51
8a 8f# 8d#X 8B/	8aa\	.	<
8r	16b\LL	.	.
.	16cc#X\JJ	.	.
8r	16dd#X\LL	.	.
.	16ee\	.	.
8a 8e 8cn'/	16ff#\	.	.
.	16gg\JJ	.	.
=52	=52	=52	=52
8aL 8e-X 8cn/	16aa\LL	.	.
.	16gg#X\	.	.
8aJ 8e- 8c/	16aa\	.	.
.	16bb\JJ	.	.
8aL 8d 8c/	16cccn\LL	.	.
.	16ddd\	.	.
8aJ 8d 8c/	16eee\	.	.
.	16fff#\JJ	.	[[
!!LO:LB:g=original
=53	=53	=53	=53
*	*ped	*	*
4..b 4..g 4..B^/	4..ggg 4..gg\	.	ff
*clefF4	*	*	*
16B 16G 16BB\	16gg 16dd 16g\	.	.
=54	=54	=54	=54
*	*Xped	*	*
8B 8G 8BB\	8gg 8dd 8g\	.	.
8r	8r	.	.
8.dL 8.B\	8.gg\L	.	mf
16dJk 16B\	16gg\Jk	.	.
=55	=55	=55	=55
4e 4cn\	4aa 4gg\	.	.
(8.A^\L	8.cccnL 8.aa^\	.	.
32B\LL	16bbJk 16gg\	.	.
32c\JJJ	.	.	.
=56	=56	=56	=56
8d\)	8aa 8ff#\	.	.
8r	8r	.	.
*	*ped	*	*
8.BL 8.G 8.D 8.BB\	8.gggL 8.ddd 8.gg\	.	ff
16BJk 16G 16D 16BB\	16gggJk 16ddd 16gg\	.	.
=57	=57	=57	=57
4..B 4..G 4..D 4..BB\	4..ggg 4..ddd 4..gg\	.	.
16BB 16BBB/	16gg 16dd 16g\	.	.
=58	=58	=58	=58
*	*Xped	*	*
8BB 8BBB/	8gg 8dd 8g\	.	.
8r	8r	.	.
8.dL 8.B\	8.gg\L	.	mf
16dJk 16B\	16gg\Jk	.	.
!!LO:LB:g=original
=59	=59	=59	=59
4e-X 4cn\	4aa 4gg\	.	.
(8.A^\L	8.cccnL 8.gg^\	.	.
32B-X\LL	16bb-XJk 16gg\	.	.
32c\JJJ	.	.	.
=60	=60	=60	=60
*	*	*	*^
8d\)	8aa 8ff#\	.	.	.
8r	8r	.	.	.
!	!	!	!LO:DY:b:rj	!LO:DY:b=2
16e-X^\LL	8aaL 8ff# 8ccn'\	.	p	mf
16d\	.	.	.	.
16cn\	8aaJ 8ff# 8cc'\	.	.	.
16d\JJ	.	.	.	.
*	*	*	*v	*v
=61	=61	=61	=61
16e-X^\LL	8aaL 8ff# 8ccn'\	.	.
16d\	.	.	.
16cn\	8aa 8ff# 8cc'\	.	.
16d\JJ	.	.	.
16e-\LL	8aa 8ff# 8cc'\	.	.
16d\	.	.	.
16c\	8aaJ 8ff# 8cc'\	.	.
16d\JJ	.	.	.
=62	=62	=62	=62
*^	*	*	*^
!	!	!	!	!	!LO:DY:b=2
8e-X'\L	4rEEyy	8aa 8ff# 8ccn'\	.	.	mf
8E-X'\J	.	8r	.	.	.
*clefG2	*	*	*	*	*
!	!	!	!	!	!LO:DY:rj:b=2
8cc#XL 8g'/	(4e-X\	16bb-X'\LL	.	pp	p
.	.	16aa'\	.	.	.
8cc#J 8g'/	.	16gg'\	.	.	.
.	.	16aa'\JJ	.	.	.
*	*	*	*	*v	*v
=63	=63	=63	=63	=63
8ddL 8g'/	4d\	16bb-X'\LL	.	.
.	.	16aa'\	.	.
8ddJ 8g'/	.	16gg'\	.	.
.	.	16aa'\JJ	.	.
8b-XL 8en'/	4c#X\	16bb-'\LL	.	.
.	.	16aa'\	.	.
8b-J 8e'/	.	16bb-'\	.	.
.	.	16gg'\JJ	.	.
!!LO:LB:g=original
=64	=64	=64	=64	=64
*	*	*	*	*^
8b-XL 8g'/	8d\)	8ddd'\L	.	sf	.
8b-J 8g'/	8r	8dd'\J	.	.	.
!	!	!	!	!	!LO:DY:b=2
16fn^>/LL	4rcyy	8bbnL 8gg#X 8dd\	.	p	mf
16e/	.	.	.	.	.
16d/	.	8bbJ 8gg# 8dd\	.	.	.
16e/JJ	.	.	.	.	.
*v	*v	*	*	*	*
*	*	*	*v	*v
=65	=65	=65	=65
16fn^/LL	8bbL 8gg#X 8dd'\	.	.
16e/	.	.	.
16d/	8bb 8gg# 8dd'\	.	.
16e/JJ	.	.	.
16f/LL	8bb 8gg# 8dd'\	.	.
16e/	.	.	.
16d/	8bbJ 8gg# 8dd'\	.	.
16e/JJ	.	.	.
=66	=66	=66	=66
*^	*	*	*^
!	!	!	!	!	!LO:DY:b=2
8fn'/L	4rcyy	8bb 8gg#X 8dd'\	.	.	sf
8Fn'/J	.	8r	.	.	.
!	!	!	!	!	!LO:DY:a=2
8dd#XL 8a'/	(4f\	16cccn'\LL	.	pp	p
.	.	16bb'\	.	.	.
8dd#J 8a'/	.	16aa'\	.	.	.
.	.	16bb'\JJ	.	.	.
*	*	*	*	*v	*v
=67	=67	=67	=67	=67
8eeL 8a'/	4e\	16cccn'\LL	.	.
.	.	16bb'\	.	.
8eeJ 8a'/	.	16aa'\	.	.
.	.	16bb'\JJ	.	.
8ccnL 8f#X'/	4d#X\	16ccc'\LL	.	.
.	.	16bb'\	.	.
8ccJ 8f#'/	.	16ccc'\	.	.
.	.	16aa'\JJ	.	.
=68	=68	=68	=68	=68
.	.	8qgg#X/	.	.
8b/	8e\)	8eee\	.	.
8r	8rcyy	8r	.	.
!	!	!LO:TX:b:i:t=dolce	!	!
4r	4rcyy	(16g#X\LL	.	.
.	.	16b\	.	.
.	.	16ee\	.	.
.	.	16gg#X\JJ)	.	.
*v	*v	*	*	*
!!LO:PB:g=original
=69	=69	=69	=69
4r	(8ff#\L	.	.
.	8ee\J)	.	.
8r	(16dd#X\LL	.	.
.	16ee\	.	.
([8b [8e [8d/	16ff#\	.	.
.	16gg#X\JJ)	.	.
=70	=70	=70	=70
8b]L 8e] 8d/]	(8bb\L	.	.
8aJ 8e 8c#/)	8aa\J)	.	.
4r	(16gg#X\LL	.	.
.	16aa\	.	.
.	16bb\	.	.
.	16ccc#\JJ)	.	.
=71	=71	=71	=71
8r	(8eee\L	.	.
8b 8f# 8B/	8ddd\J)	.	.
.	8qeee/	.	.
8r	(16ddd\LL	.	.
.	16ccc#\	.	.
8b 8g#X 8e/	16ddd\	.	.
.	16eee\JJ)	.	.
=72	=72	=72	=72
8r	(8ccc#\L	.	.
8cc# 8e 8A/	8aa\J)	.	.
8r	(16g#X\LL	.	.
.	16b\	.	.
([8b [8e/	16ee\	.	.
.	16gg#X\JJ)	.	.
!!LO:LB:g=original
=73	=73	=73	=73
8b] 8e/]	(8ff#\L	.	.
4b 4e 4d#X/	8ee\J)	.	.
.	(16dd#X\LL	.	<
.	16ee\	.	.
[8b [>8e [8dn/	16ff#\	.	.
.	16gg#X\JJ)	.	[
=74	=74	=74	=74
8b] 8e] 8d/]	8.bb^\L	.	.
4a 4e 4c#/	.	.	.
.	16aa\Jk	.	.
.	(16aa\LL	.	.
.	16gg#X\	.	.
8b#X 8a 8d#X/	16aa\	.	.
.	16ff#\JJ)	.	.
=75	=75	=75	=75
8cc# 8a 8e/)	8ee\L	.	.
8r	(16ff#\L	.	.
.	16ee\JJ)	.	.
*clefF4	*	*	*
.	8qee/	.	.
4d 4G#X 4E\	(16dd\LL	.	.
.	16cc#\	.	.
.	16dd\	.	.
.	16b\JJ)	.	.
=76	=76	=76	=76
!	!	!	!LO:DY:a=2
16AA\LL	4a/	.	p
16E\	.	.	.
16c#\	.	.	.
16E\JJ	.	.	.
16C#\LL	(8ee\L	.	.
16E\	.	.	.
16A\	8aa\J)	.	.
16E\JJ	.	.	.
!!LO:LB:g=original
=77	=77	=77	=77
16AA\LL	(8ee^\L	.	.
16E\	.	.	.
16A\	16dd\L	.	.
16E\JJ	16cc#\JJ)	.	.
16C#\LL	8b/L	.	.
16E\	.	.	.
16A\	8a/J	.	.
16E\JJ	.	.	.
=78	=78	=78	=78
16AA\LL	4cc#^\	.	.
16E\	.	.	.
16A\	.	.	.
16E\JJ	.	.	.
16C#\LL	(8ee\L	.	.
16E\	.	.	.
16A\	8aa\J)	.	.
16E\JJ	.	.	.
=79	=79	=79	=79
16AA\LL	(8ee^\L	.	.
16E\	.	.	.
16A\	16dd\L	.	.
16E\JJ	16cc#\JJ)	.	.
16C#\LL	8b/L	.	.
16E\	.	.	.
16A\	8a/J	.	.
16E\JJ	.	.	.
=80	=80	=80	=80
16AA\LL	4ee^\	.	.
16E\	.	.	.
16A\	.	.	.
16E\JJ	.	.	.
16AA\LL	8eeL 8cc#'\	.	.
16E\	.	.	.
16A\	8ff#J 8cc#'\	.	.
16E\JJ	.	.	.
!!LO:LB:g=original
=81	=81	=81	=81
16AA\LL	(8gg#XL 8dd\	.	.
16E\	.	.	.
16B\	16ff#\L	.	.
16E\JJ	16ee\JJ)	.	.
16AA\LL	8ff#L 8dd'\	.	.
16E\	.	.	.
16B\	8gg#J 8dd'\	.	.
16E\JJ	.	.	.
=82	=82	=82	=82
16AA\LL	4aa 4cc#\	.	.
16E\	.	.	.
16A\	.	.	.
16E\JJ	.	.	.
16D\LL	(8ff#\L	.	.
16A\	.	.	.
16F#\	8aa\J)	.	.
16D\JJ	.	.	.
=83	=83	=83	=83
16E\LL	(8.ee^\L	.	.
16c#\	.	.	.
16A\	.	.	.
16c#\JJ	32ff#\LL	.	.
.	32ee\JJJ)	.	.
16E\LL	8dd'\L	.	.
16B\	.	.	.
16G#X\	8b'\J	.	.
16B\JJ	.	.	.
!!LO:LB:g=original
=84	=84	=84	=84
*	*^	*	*
16AA\LL	4a/	4rcyy	.	.
16A\	.	.	.	.
16E\	.	.	.	.
16A\JJ	.	.	.	.
16D\LL	(8a/L	[4f#\	.	.
16A\	.	.	.	.
16D\	8dd/J	.	.	.
16A\JJ	.	.	.	.
=85	=85	=85	=85	=85
16D\LL	8a/L	8f#\]	.	.
16A\	.	.	.	.
16F#\	16gn/L	8rcyy	.	.
16A\JJ	16f#/JJ	.	.	.
16D\LL	8e/L	4rcyy	.	.
16A\	.	.	.	.
16F#\	8d/J	.	.	.
16A\JJ	.	.	.	.
=86	=86	=86	=86	=86
16AA\LL	4a 4e 4c#/)	4rcyy	.	.
16A\	.	.	.	.
16E\	.	.	.	.
16A\JJ	.	.	.	.
16D\LL	(8a/L	[4fn [4d\	.	.
16A\	.	.	.	.
16D\	8dd/J	.	.	.
16A\JJ	.	.	.	.
=87	=87	=87	=87	=87
16D\LL	8a/L	8f] 8d\]	.	.
16A\	.	.	.	.
16Fn\	16g/L	8rcyy	.	.
16A\JJ	16fn/JJ	.	.	.
16D\LL	8e/L	4rcyy	.	.
16A\	.	.	.	.
16F\	8d/J	.	.	.
16A\JJ	.	.	.	.
*	*v	*v	*	*
!!LO:PB:g=original
=88	=88	=88	=88
!	!LO:TX:t=P:problem:brak zakończenia łuku	!	!
16C#\LL	4e/)	.	.
16A\	.	.	.
16E\	.	.	.
16A\JJ	.	.	.
!	!LO:TX:b:i:t=dolcissimo	!	!
16C#\LL	8ee'\L	.	.
16A\	.	.	.
16E\	8ff#'\J	.	.
16A\JJ	.	.	.
=89	=89	=89	=89
16BB\LL	(8gg#XL 8dd\	.	.
16B\	.	.	.
16E\	16ff#\L	.	.
16B\JJ	16ee\JJ)	.	.
16BB\LL	8ff#L 8dd'\	.	.
16B\	.	.	.
16E\	8gg#J 8dd'\	.	.
16B\JJ	.	.	.
=90	=90	=90	=90
16AA\LL	4aa 4cc#^\	.	.
16A\	.	.	.
16E\	.	.	.
16A\JJ	.	.	.
16D\LL	(8ff#L 8dd\	.	.
16A\	.	.	.
16F#\	8aa\J)	.	.
16A\JJ	.	.	.
=91	=91	=91	=91
16E\LL	(8.ee\L	.	.
16c#\	.	.	.
16A\	.	.	.
16c#\JJ	32ff#\LL	.	.
.	32ee\JJJ)	.	.
16E\LL	8dd'\L	.	.
16d\	.	.	.
16G#X\	8b'\J	.	.
16d\JJ	.	.	.
!!LO:LB:g=original
=92	=92	=92	=92
*^	*	*	*
16A\LL	4rEEyy	(8ff#^\L	.	.
16c#\	.	.	.	.
16A\	.	8ee\J)	.	.
16c#\JJ	.	.	.	.
16G#X/LL	(4E\	8ee'\L	.	.
16B/	.	.	.	.
16G#/	.	8ee#X'\J	.	.
16B/JJ	.	.	.	.
=93	=93	=93	=93	=93
16F#/LL	4D#X\	8ff#\L	.	<
16B/	.	.	.	.
.	.	8qgg#X/	.	.
16F#/	.	(16ff#\L	.	.
16B/JJ	.	16ee\JJ	.	.
16F#/LL	4Dn\)	8ff#\L)	.	.
16B/	.	.	.	.
16E/	.	8gg#X'\J	.	.
16B/JJ	.	.	.	[
*v	*v	*	*	*
=94	=94	=94	=94
16C#\LL	8.aa\L	.	mf
16A\	.	.	.
16E\	.	.	.
16A\JJ	16ccc#\Jk	.	.
16D#X\LL	16bb\LL	.	.
16B#X\	16aa\	.	.
16A\	16gg#X\	.	.
16B#\JJ	16ff#\JJ	.	.
!!LO:LB:g=original
=95	=95	=95	=95
16E\LL	8.ee\L	.	>
16c#\	.	.	.
16A\	.	.	.
16c#\JJ	16cc#\Jk	.	.
.	8qee/	.	.
16E\LL	16dd\LL	.	.
16B\	16cc#\	.	.
16E\	16dd\	.	.
16e\JJ	16b\JJ	.	]
=96	=96	=96	=96
8AA'\L	4a/	.	.
8A 8E 8C#'\	.	.	p
!	!LO:TX:a:i:t=scherzando	!	!
8A 8E 8C#'\	(16cc#\LL	.	.
.	16ee\	.	.
8AJ 8E 8C#'\	16cc#\	.	.
.	16a\JJ)	.	.
=97	=97	=97	=97
8AA'\L	8e'/L	.	.
8A 8E 8C#'\	8e'/J	.	.
8A 8E 8C#'\	(16cc#\LL	.	.
.	16ee\	.	.
8AJ 8E 8C#'\	16cc#\	.	.
.	16a\JJ)	.	.
=98	=98	=98	=98
8AA'\L	8e'/L	.	.
8A 8E 8C#'\	8e'/J	.	.
8A 8E 8C#'\	(16cc#\LL	.	.
.	16ee\	.	.
8AJ 8E 8C#'\	16cc#\	.	.
.	16a\JJ)	.	.
!!LO:LB:g=original
=99	=99	=99	=99
8C#\L	8e/L	.	.
8AJ 8E\	16f#/L	.	.
.	16g#X/JJ	.	.
.	8qb/	.	.
8AA\L	16a/LL	.	.
.	16g#/	.	.
8c#J 8E\	16a/	.	.
.	16a#X/JJ	.	.
=100	=100	=100	=100
(8D^>/L	4b\	.	.
16C#/L	.	.	.
16BB/JJ)	.	.	.
8AA#X'\L	(16ff#\LL	.	.
.	16ggn\	.	.
8c#J 8F#'\	16ff#\	.	.
.	16ee\JJ)	.	.
=101	=101	=101	=101
*^	*	*	*
8BB'\L	4rEEyy	8dd'\L	.	.
8BJ 8F#'\	.	8dd'\J	.	.
(<8E#X/L	4E#\	(16cc#\LL	.	.
.	.	16dd\	.	.
8c#J 8G#X/	.	16cc#\	.	.
.	.	16b\JJ)	.	.
*v	*v	*	*	*
=102	=102	=102	=102
8F#'\L)	16a/LL	.	.
.	16g#X/	.	.
8c#J 8A'\	16f#/	.	.
.	16g#/JJ	.	.
8D'\L	16a/LL	.	.
.	16g#/	.	.
8dJ 8A'\	16a/	.	.
.	16b/JJ	.	.
!!LO:LB:g=original
=103	=103	=103	=103
8E\L	16cc#\LL	.	.
.	16b\	.	.
8c#J 8A\	16cc#\	.	.
.	16dd\JJ	.	.
8E\L	16ee\LL	.	.
.	16ff#\	.	.
8eJ 8B 8G#X\	16ee\	.	.
.	16dd\JJ	.	.
=104	=104	=104	=104
8AA'\L	4cc#\	.	.
8eJ 8c# 8A'\	.	.	.
8c#L 8A 8E'\	(16cc#\LL	.	.
.	16ee\	.	.
8AJ 8E 8C#'\	16cc#\	.	.
.	16a\JJ)	.	.
=105	=105	=105	=105
8AA/	8e'/L	.	.
8AL 8E 8C#'\	8e'/J	.	.
8A 8E 8C#'\	(16cc#\LL	.	.
.	16ee\	.	.
8AJ 8E 8C#'\	16cc#\	.	.
.	16a\JJ)	.	.
=106	=106	=106	=106
8AA/	8e'/L	.	.
8AL 8E 8C#'\	8e'/J	.	.
8A 8E 8C#'\	(16cc#\LL	.	.
.	16ee\	.	.
8AJ 8E 8C#'\	16cc#\	.	.
.	16a\JJ)	.	.
!!LO:PB:g=original
=107	=107	=107	=107
8C#\L	8e/L	.	.
8AJ 8E\	16f#/L	.	.
.	16g#X/JJ	.	.
.	8qb/	.	.
8AA\L	16a/LL	.	.
.	16g#/	.	.
8c#J 8E\	16a/	.	.
.	16a#X/JJ	.	.
=108	=108	=108	=108
(8D^/L	4b\	.	.
16C#/L	.	.	.
16BB/JJ)	.	.	.
8AA#X'\L	(16ff#\LL	.	.
.	16ggn\	.	.
8c#J 8F#'\	16ff#\	.	.
.	16ee\JJ)	.	.
=109	=109	=109	=109
*^	*	*	*
8BB\L	4rEEyy	8dd'\L	.	.
8BJ 8F#\	.	8dd'\J	.	.
(<8E#X/L	4E#\	(16cc#\LL	.	.
.	.	16dd\	.	.
8c#J 8G#X/	.	16cc#\	.	.
.	.	16b\JJ)	.	.
*v	*v	*	*	*
=110	=110	=110	=110
8F#\L)	16a/LL	.	.
.	16g#X/	.	.
8c#J 8A\	16f#/	.	.
.	16g#/JJ	.	.
8D#X\L	16a/LL	.	.
.	16g#/	.	.
8BJ 8A\	16a/	.	.
.	16b/JJ	.	.
!!LO:LB:g=original
=111	=111	=111	=111
8E\L	16cc#\LL	.	.
.	16b\	.	.
8c#J 8A\	16cc#\	.	.
.	16dd\JJ	.	.
8E\L	16ee\LL	.	.
.	16ee#X\	.	.
8dJ 8B\	16ff#\	.	.
.	16gg#X\JJ	.	.
=112	=112	=112	=112
*	*ped	*	*
16c#LL 16A\	4aa\	.	.
16e\	.	.	.
16c# 16A\	.	.	.
16e\JJ	.	.	.
16c#LL 16A\	8.aaL 8.a\	.	p
16e\	.	.	.
16c# 16A\	.	.	.
16e\JJ	16aaJk 16a\	.	.
=113	=113	=113	=113
16c#LL 16G\	4.aa 4.a^^\	.	.
16e\	.	.	.
16c# 16G\	.	.	.
16e\JJ	.	.	.
16c#LL 16G\	.	.	.
16e\	.	.	.
16c# 16G\	8a/	.	.
16e\JJ	.	.	.
*	*Xped	*	*
=114	=114	=114	=114
*	*ped	*	*
16ALL 16F#\	4a/	.	.
16d#X\	.	.	.
16A 16F#\	.	.	.
16d#\JJ	.	.	.
16ALL 16F#\	8.aaL 8.a\	.	.
16d#\	.	.	.
16A 16F#\	.	.	.
16d#\JJ	16aaJk 16a\	.	.
*	*Xped	*	*
!!LO:LB:g=original
=115	=115	=115	=115
*	*ped	*	*
16ALL 16Fn\	4.aa 4.a^^\	.	.
16dn\	.	.	.
16A 16F\	.	.	.
16d\JJ	.	.	.
16ALL 16F\	.	.	.
16d\	.	.	.
16A 16F\	8a/	.	.
16d\JJ	.	.	.
*	*Xped	*	*
=116	=116	=116	=116
*	*ped	*	*
16ALL 16E\	4a/	.	.
16c#\	.	.	.
16A 16E\	.	.	.
16c#\JJ	.	.	.
16ALL 16E\	8.aaL 8.a\	.	.
16c#\	.	.	.
16A 16E\	.	.	.
16c#\JJ	16aaJk 16a\	.	.
*	*Xped	*	*
=117	=117	=117	=117
*	*^	*	*
*	*ped	*	*	*
16F#LL 16D\	(4aa^^/	2a\	.	.
16B#X\	.	.	.	.
16F# 16D\	.	.	.	.
*	*Xped	*	*	*
16B#\JJ	.	.	.	.
16D#X\LL	8gg#X/L	.	.	.
16B#\	.	.	.	.
16A 16D#\	8ff#/J	.	.	.
16B#\JJ	.	.	.	.
=118	=118	=118	=118	=118
16E\LL	4ee/)	4a\	.	.
16c#\	.	.	.	.
16A\	.	.	.	.
16c#\JJ	.	.	.	.
16E\LL	(16cc#\LL	4rGGGGyy	.	.
16c#\	16ee\	.	.	.
16A\	16aa\	.	.	.
16c#\JJ	16ccc#\JJ)	.	.	.
*	*v	*v	*	*
!!LO:LB:g=original
=119	=119	=119	=119
16G#XLL 16E\	8eee'\L	.	.
16e\	.	.	.
16A 16F#\	8ddd'\J	.	.
16e\JJ	.	.	.
.	8qeee/	.	.
16A#XLL 16F##X\	(16ddd\LL	.	.
16e\	16ccc#\	.	.
16B 16G#\	16ddd\	.	.
16e\JJ	16eee\JJ	.	.
=120	=120	=120	=120
*^	*	*	*
16c#/LL	8A\L	8ccc#\)	.	.
16e/	.	.	.	.
!LO:TX:b:t=cre-scen-do:ext=ud:problem:text with extention lines	!	!	!	!LO:HP:b=2
16c#/	8G#X\J	8r	.	<
16e/JJ	.	.	.	.
16c#/LL	8A\L	8.aaL 8.a\	.	.
16e/	.	.	.	.
16c#/	8G#\J	.	.	.
16e/JJ	.	16aaJk 16a\	.	.
=121	=121	=121	=121	=121
16c#/LL	8Gn\L	4.aa 4.a^^\	.	.
16e/	.	.	.	.
16c#/	8F#\	.	.	.
16e/JJ	.	.	.	.
16c#/LL	8A\	.	.	.
16e/	.	.	.	.
16c#/	8G\J	8a/	.	.
16e/JJ	.	.	.	.
=122	=122	=122	=122	=122
16A/LL	8F#\L	4a/	.	.
16d#X/	.	.	.	.
16A/	8E#X\	.	.	.
16d#/JJ	.	.	.	.
16A/LL	8G\	8.aaL 8.a\	.	.
16d#/	.	.	.	.
16A/	8F#\J	.	.	.
16d#/JJ	.	16aaJk 16a\	.	.
!!LO:LB:g=original
=123	=123	=123	=123	=123
16A/LL	8Fn\L	4.aa 4.a^^\	.	.
16dn/	.	.	.	.
16A/	8E\	.	.	.
16d/JJ	.	.	.	.
16A/LL	8G\	.	.	.
16d/	.	.	.	.
16A/	8F\J	8a/	.	.
16d/JJ	.	.	.	.
=124	=124	=124	=124	=124
16A/LL	8E\L	4a/	.	.
16c#/	.	.	.	.
16A/	8D#X\J	.	.	.
16c#/JJ	.	.	.	.
16A/LL	8F#X\L	8.aaL 8.a\	.	.
16c#/	.	.	.	.
16A/	8E\J	.	.	[
16c#/JJ	.	16aaJk 16a\	.	.
=125	=125	=125	=125	=125
16F#/LL	8Dn\L	(4aa 4a^^\	.	.
16B#X/	.	.	.	.
16F#/	8C#\J	.	.	.
16B#/JJ	.	.	.	.
16F#/LL	8D\L	8gg#XL 8g#X\	.	.
16B#/	.	.	.	.
16A/	8D#X\J	8ff#J 8f#\)	.	.
16B#/JJ	.	.	.	.
!!LO:PB:g=original
=126	=126	=126	=126	=126
*	*	*^	*	*
16A/LL	8E\L	4ee/	4a\	.	.
16c#/	.	.	.	.	.
16A/	8D#X\	.	.	.	.
16c#/JJ	.	.	.	.	.
16A/LL	8F#\	(16cc#\LL	4rcyy	.	.
16c#/	.	16ee\	.	.	.
16A/	8E\J	16aa\	.	.	.
16c#/JJ	.	16ccc#\JJ)	.	.	.
*	*	*v	*v	*	*
=127	=127	=127	=127	=127
16B/LL	8G#X\L	8eee'\L	.	.
16e/	.	.	.	.
16B/	8F#\	8ddd'\J	.	.
16e/JJ	.	.	.	.
.	.	8qeee/	.	.
16B/LL	8A\	(16ddd\LL	.	.
16e/	.	16ccc#\	.	.
16B/	8G#\J	16ddd\	.	.
16e/JJ	.	16bb\JJ)	.	.
*v	*v	*	*	*
=128	=128	=128	=128
4e 4A\	(16ccc#\LL	.	ff
.	16eee\	.	.
.	16ccc#\	.	.
.	16aa\JJ)	.	.
8dL 8A 8D'\	8ff#'\L	.	.
8dJ 8A 8D'\	8ff#J 8dd 8a'\	.	.
=129	=129	=129	=129
4c# 4A 4E\	(16eeLL 16a\	.	.
.	16cc#\	.	.
.	16ee\	.	.
.	16aa\JJ)	.	.
8eL 8G#X 8E'\	8bbL 8ee'\	.	.
8eJ 8G# 8E'\	8eeeJ 8ee'\	.	.
!!LO:LB:g=original
=130	=130	=130	=130
4e 4A\	(16ccc#\LL	.	.
.	16eee\	.	.
.	16ccc#\	.	.
.	16aa\JJ)	.	.
8dL 8A 8D'\	8ff#'\L	.	.
8dJ 8A 8D'\	8ff#J 8dd 8a'\	.	.
=131	=131	=131	=131
4c# 4A 4E\	(16eeLL 16a\	.	.
.	16cc#\	.	.
.	16ee\	.	.
.	16aa\JJ)	.	.
8eL 8G#X 8E'\	8bb'\L	.	.
8eJ 8G# 8E'\	8eeeJ 8ee'\	.	.
=132	=132	=132	=132
*	*ped	*	*
16c#LL 16A\	16ccc#\LL	.	ff
16e\	16aaa\	.	.
16c# 16A\	16eee\	.	.
16e\JJ	16ccc#\JJ	.	.
16c#LL 16A\	16aa\LL	.	.
16e\	16ccc#\	.	.
16c# 16A\	16aa\	.	.
16e\JJ	16ee\JJ	.	.
=133	=133	=133	=133
16c#LL 16A\	16cc#\LL	.	.
16e\	16ee\	.	.
16c# 16A\	16cc#\	.	.
16e\JJ	16a\JJ	.	.
16c#\LL	16e/LL	.	.
16A\	16a/	.	.
16E\	16e/	.	.
16D\JJ	16d/JJ	.	.
!!LO:LB:g=original
=134	=134	=134	=134
8C#/	16c#/LL	.	.
.	16a/	.	.
8E/L	16e/	.	.
.	16c#/JJ	.	.
8AA/	16A/LL	.	.
.	16e/	.	.
8C#/J	16c#/	.	.
.	16A/JJ	.	.
*	*clefF4	*	*
=135	=135	=135	=135
8EE/L	16E\LL	.	.
.	16c#\	.	.
8AA/	16A\	.	.
.	16E\JJ	.	.
8CC#/	16C#\LL	.	.
.	16A\	.	.
8EE/J	16E\	.	.
.	16C#\JJ	.	.
*	*Xped	*	*
=136	=136	=136	=136
8AAA'/L	8AA'/L	.	f
16BBB'/L	16BB'/L	.	.
16CC#'/JJ	16C#'/JJ	.	.
8DD'/L	8D'\L	.	.
8EE'/J	8E'\J	.	.
=137	=137	=137	=137
8FF#'/L	8F#'\L	.	.
8GG#X'/	8G#X'\	.	.
8AA'/	8A'\	.	.
8BB/J	8B'\J	.	.
!!LO:LB:g=original
=138	=138	=138	=138
8C#'\L	8c#'\L	.	.
(16E\L	(16e\L	.	.
16D\JJ)	16d\JJ)	.	.
8C#'/L	8c#'\L	.	.
8BB'/J	8B'\J	.	.
=139	=139	=139	=139
8AA'/L	8A'\L	.	.
!	!LO:TUP:a:problem:klamra łukowa	!	!
8FF#'/	24F#\L	.	.
.	24G#X\	.	.
.	24F#\J	.	.
8EE'/	8E'\	.	.
8CC#'/J	8C#'\J	.	.
=140	=140	=140	=140
8AAA'/L	8AA'/L	.	.
16BBB/L	16BB/L	.	.
16CCn/JJ	16Cn/JJ	.	.
16DD/LL	16D/LL	.	.
16CC/	16C/	.	.
16DD/	16D/	.	.
16EE/JJ	16E/JJ	.	.
=141	=141	=141	=141
.	8qG/	.	.
!	!LO:TX:b:t=di-mi-nu-en-do:ext=ud:problem:text with extention lines	!	!
8FFn'/L	8Fn'\L	.	>
8EE'/	8E'\	.	.
8AA'/	8A'\	.	.
8BB'/J	8B'\J	.	.
!!LO:LB:g=original
=142	=142	=142	=142
8Cn/	8cn\	.	.
(16E\LL	(16e\LL	.	.
16D\JJ)	16d\JJ)	.	.
8C'/L	8c'\L	.	.
8AA'/J	8A'\J	.	.
=143	=143	=143	=143
8GG'/L	8G'\L	.	.
(16AA/L	(16A\L	.	.
16GG/JJ)	16G\JJ)	.	.
8EE'/L	8E'\L	.	.
8DD'/J	8D'\J	.	.
=144	=144	=144	=144
8CCn'/L	8Cn'\L	.	.
16DD/L	16D\L	.	.
16EE/JJ	16E\JJ	.	.
16FFn/LL	16Fn\LL	.	.
16EE/	16E\	.	.
16FF/	16F\	.	.
16GG/JJ	16G\JJ	.	.
=145	=145	=145	=145
8AA/L	8A\L	.	.
16EE/L	16E\L	.	]
16FFn/JJ	16Fn\JJ	.	.
8GG/L	8G\L	.	.
16AA/L	16A\L	.	.
16BB/JJ	16B\JJ	.	.
!!LO:PB:g=original
=146	=146	=146	=146
8Cn/L	8cn\L	.	p
16EE/L	16E\L	.	.
16FFn/JJ	16Fn\JJ	.	.
8GG/L	8G\L	.	.
16AA/L	16A\L	.	.
16BB/JJ	16B\JJ	.	.
=147	=147	=147	=147
8Cn/L	8cn\L	.	.
16EE/L	16E\L	.	.
16FFn/JJ	16Fn\JJ	.	.
8GG/L	8G\L	.	.
16AA/L	16A\L	.	.
16BB/JJ	16B\JJ	.	.
=148	=148	=148	=148
8Cn'/L	8cn'\L	.	.
!	!LO:TX:b:i:t=per-den-do-si:dur=12e:ext=ud:problem:text with extention lines	!	!
(16D/L	(16d\L	.	.
16C/JJ)	16c\JJ)	.	.
8BB'/L	8B'\L	.	.
8AA'/J	8A'\J	.	.
=149	=149	=149	=149
8AA'/L	8A'\L	.	.
(16BB/L	(16B\L	.	.
16AA/JJ)	16A\JJ)	.	.
8GG'/L	8G'\L	.	.
8FFn'/J	8Fn'\J	.	.
!!LO:LB:g=original
=150	=150	=150	=150
8FFn/L	8Fn\L	.	.
(16GG/L	(16G\L	.	.
16FF/JJ)	16F\JJ)	.	.
8EE'/L	8E'\L	.	.
8DD'/J	8D'\J	.	.
=151	=151	=151	=151
8CCn'/L	8Cn'/L	.	.
8BBB'/	8BB'/	.	.
8BBB-X'/	8BB-X'/	.	.
8AAA'/J	8AA'/J	.	.
=152	=152	=152	=152
8GGG#X/	8GG#X/	.	pp
*	*ped	*	*
16GGG#/LL	(16D/LL	.	.
16GG#X/JJ	16BB/JJ	.	.
16GGG#/LL	16D/LL	.	.
16GG#/	16BB/	.	.
16GGG#/	16D/	.	.
16GG#/JJ	16BB/JJ	.	.
=153	=153	=153	=153
16GGG#X/LL	8D/)	.	.
16GG#X/	.	.	.
16GGG#/	(16B\LL	.	.
16GG#/JJ	16D\JJ	.	.
16GGG#/LL	16B\LL	.	.
16GG#/	16D\	.	.
16GGG#/	16B\	.	.
16GG#/JJ	16D\JJ	.	.
!!LO:LB:g=original
=154	=154	=154	=154
16GGG#X/LL	8B\)	.	.
16GG#X/	.	.	.
16GGG#/	(16d\LL	.	.
16GG#/JJ	16B\JJ	.	.
16GGG#/LL	16d\LL	.	.
16GG#/	16B\	.	.
16GGG#/	16d\	.	.
16GG#/JJ	16B\JJ	.	.
=155	=155	=155	=155
16GGG#X/LL	8d\)	.	.
16GG#X/	.	.	.
*	*clefG2	*	*
16GGG#/	(16b/LL	.	.
16GG#/JJ	16d/JJ	.	.
16GGG#/LL	16b/LL	.	.
16GG#/	16d/	.	.
16GGG#/	16b/	.	.
16GG#/JJ	16d/JJ	.	.
=156	=156	=156	=156
8GGG#X/	8b/)	.	.
16G#X\LL	8r	.	.
16e#X\JJ	.	.	.
16BLL 16G#\	(16ee#X\LL	.	pp
16e#\	16gg#X\	.	.
16B 16G#\	16bb\	.	.
16e#\JJ	16ddd\JJ)	.	.
=157	=157	=157	=157
16BLL 16G#X\	8ccc#'\L	.	.
16e#X\	.	.	.
16B 16G#\	8bb'\J	.	.
16e#\JJ	.	.	.
16BLL 16G#\	(16aa#X\LL	.	.
16e#\	16bb\	.	.
16B 16G#\	16ccc#\	.	.
16e#\JJ	16bb\JJ)	.	.
!!LO:LB:g=original
=158	=158	=158	=158
16BLL 16G#X\	4bb^^\	.	.
16e#X\	.	.	.
16B 16G#\	.	.	.
16e#\JJ	.	.	.
16BLL 16G#\	(16ee#X\LL	.	.
16e#\	16gg#X\	.	.
16B 16G#\	16bb\	.	.
16e#\JJ	16ddd\JJ)	.	.
=159	=159	=159	=159
16BLL 16G#X\	8ccc#'\L	.	.
16e#X\	.	.	.
16B 16G#\	8bb'\J	.	.
16e#\JJ	.	.	.
16BLL 16G#\	(16aa#X\LL	.	.
16e#\	16bb\	.	.
16B 16G#\	16ccc#\	.	.
16e#\JJ	16bb\JJ)	.	.
=160	=160	=160	=160
16BLL 16G#X\	4bb^^\	.	.
16en\	.	.	.
16B 16G#\	.	.	.
16e\JJ	.	.	.
16BLL 16G#\	(16een\LL	.	.
16e\	16gg#X\	.	.
16B 16G#\	16bb\	.	.
16e\JJ	16ddd\JJ)	.	.
=161	=161	=161	=161
16ALL 16Gn\	(8ccc#^^\L	.	.
16e\	.	.	.
16A 16G\	8bb\J)	.	.
16e\JJ	.	.	.
16ALL 16G\	(16aa#X\LL	.	.
16e\	16bb\	.	.
16A 16G\	16ccc#\	.	.
16e\JJ	16bb\JJ)	.	.
!!LO:LB:g=original
=162	=162	=162	=162
16ALL 16F#\	(8bb^\L	.	.
16d\	.	.	.
16A 16F#\	8aa\J)	.	.
16d\JJ	.	.	.
16ALL 16F#\	(16gg#X\LL	.	.
16d\	16aa\	.	.
16A 16F#\	16bb\	.	.
16d\JJ	16aa\JJ)	.	.
=163	=163	=163	=163
16ALL 16E\	(8aa^\L	.	.
16c#\	.	.	.
16A 16E\	8ggn\J)	.	.
16c#\JJ	.	.	.
16ALL 16E\	(16ff#\LL	.	.
16c#\	16gg\	.	.
16A 16E\	16aa\	.	.
16c#\JJ	16gg\JJ)	.	.
=164	=164	=164	=164
16ALL 16D\	(8gg^\L	.	.
16d\	.	.	.
16A 16D\	8ff#\J)	.	.
16d\JJ	.	.	.
16ALL 16D\	(16ee#X\LL	.	.
16d\	16ff#\	.	.
16A 16D\	16aa\	.	.
16d\JJ	16gg\JJ)	.	.
=165	=165	=165	=165
16BLL 16G\	(8ff#^\L	.	.
16d\	.	.	.
16B 16G\	8ee\J)	.	.
16d\JJ	.	.	.
16BLL 16G\	(16ddd\LL	.	.
16d\	16bb\	.	.
16B 16G\	16gg\	.	.
16d\JJ	16ee\JJ)	.	.
!!LO:PB:g=original
=166	=166	=166	=166
16dLL 16A\	(8ee^\L	.	.
16f#\	.	.	.
16d 16A\	8dd\J)	.	.
16f#\JJ	.	.	.
16dLL 16A\	(16cc#\LL	.	.
16f#\	16dd\	.	.
16d 16A\	16ee\	.	.
16f#\JJ	16dd\JJ)	.	.
=167	=167	=167	=167
16eLL 16A#X\	(8dd^\L	.	.
16g\	.	.	.
16e 16A#\	8cc#\J)	.	.
16g\JJ	.	.	.
16eLL 16A#\	(16gg\LL	.	.
16g\	16ee\	.	.
16e 16A#\	16cc#\	.	.
16g\JJ	16ee\JJ)	.	.
=168	=168	=168	=168
*^	*	*	*
16d/LL	(4.B\	8dd'\	.	.
16f#/	.	.	.	.
.	.	8qee/	.	.
16d/	.	16dd\LL	.	.
16f#/JJ	.	16cc#\JJ	.	.
16d/LL	.	16dd\LL	.	.
16f#/	.	16ee\	.	.
16c#/	8A#X\)	16ff#^^\	.	.
16f#/JJ	.	16cc#\JJ	.	.
=169	=169	=169	=169	=169
16d/LL	(4.B\	8dd'\	.	.
16f#/	.	.	.	.
.	.	8qee/	.	.
16d/	.	16dd\LL	.	.
16f#/JJ	.	16cc#\JJ	.	.
16d/LL	.	16dd\LL	.	.
16f#/	.	16ee\	.	.
16c#/	8A#X\)	16ff#^^\	.	.
16f#/JJ	.	16cc#\JJ	.	.
*v	*v	*	*	*
!!LO:LB:g=original
=170	=170	=170	=170
(4d 4B\	8dd\	.	.
.	8qee/	.	.
.	16dd\LL	.	.
.	16cc#\JJ	.	.
4g 4d 4B-X\	16dd\LL	.	.
.	16ee\	.	.
.	16ff#\	.	.
.	16gg\JJ	.	.
=171	=171	=171	=171
4f# 4d 4A\	16aa\LL	.	.
.	16ff#\	.	.
.	16gg\	.	.
.	16aa\JJ	.	.
4d 4B 4G\	16bb\LL	.	.
.	16ccc#\	.	.
.	16ddd\	.	.
.	16eee\JJ	.	.
=172	=172	=172	=172
4d 4A 4F#\	4fff#\	.	.
4e 4A#X 4F#\	16eee\LL	.	.
.	16ddd\	.	.
.	16ccc#\	.	.
.	16eee\JJ	.	.
=173	=173	=173	=173
4d 4An 4F#\	8ddd'\L	.	.
.	8aa'\J	.	.
4d 4G\)	(16bb\LL	.	.
.	16aa\	.	.
.	16gg\	.	.
.	16ddd\JJ	.	.
!!LO:LB:g=original
=174	=174	=174	=174
8dL 8A 8F#'\	4aa\)	.	.
8dJ 8A 8F#'\	.	.	.
4B 4G 4E\	(16gg\LL	.	.
.	16ff#\	.	.
.	16ee\	.	.
.	16bb\JJ	.	.
=175	=175	=175	=175
8BL 8F# 8D'\	4ff#\)	.	.
8BJ 8F# 8D'\	.	.	.
4A#X 4F# 4C#\	16ff#\LL	.	.
.	16gg\	.	.
.	16ff#\	.	.
.	16ee\JJ	.	.
=176	=176	=176	=176
(<4B 4F# 4BB\	16dd\LL	.	.
.	16cc#\	.	.
.	16b\	.	.
.	16cc#\JJ	.	.
4B 4E\)	16dd\LL	.	.
.	16ee\	.	.
.	16ff#\	.	.
.	16gg#X\JJ	.	.
=177	=177	=177	=177
8qG#X/	8qgg#X/	.	.
8A^\L	8aa^\L	.	.
8AA\J	8a\J	.	.
!	!	!	!LO:DY:b:t=piu %s
8qF#X/	(8qaa#X 8qee 8qcc#/	.	f
8Gn^\L	8bbL 8ffn 8dd^\)	.	.
8GG'\J	8gn'\J	.	.
!!LO:LB:g=original
=178||	=178||	=178||	=178||
*k[]	*k[]	*	*
*a:	*a:	*	*
8C 8GG 8CC/	8ccc 8ee 8cc\	.	fff
.	8qdd/	.	.
8cL 8G 8E 8C\	16cc\LL	.	.
.	16b\JJ	.	<
8c 8G 8E 8C\	16cc\LL	.	.
.	16dd\	.	.
8cJ 8G 8E 8C\	16ee\	.	.
.	16ff\JJ	.	.
=179	=179	=179	=179
8cL 8G 8E 8C\	16gg\LL	.	.
.	16ee\	.	.
8cJ 8G 8E 8C\	16ff\	.	.
.	16gg\JJ	.	.
8cL 8A 8F 8C\	16aa\LL	.	.
.	16bb\	.	.
8cJ 8A 8F 8C\	16ccc\	.	.
.	16ddd\JJ	.	[[
=180	=180	=180	=180
8cL 8G 8E 8C\	4eee^\	.	.
8cJ 8G 8E 8C\	.	.	.
8BL 8G 8F 8C\	16ddd\LL	.	.
.	16ccc\	.	.
8BJ 8G 8F 8C\	16bb\	.	.
.	16ddd\JJ	.	.
=181	=181	=181	=181
8cL 8G 8E 8C\	8ccc'\L	.	.
8cJ 8G 8E 8C\	8gg'\J	.	.
8cL 8A 8F\	16aa\LL	.	.
.	16gg\	.	.
8cJ 8A 8F\	16ff\	.	.
.	16ccc\JJ	.	.
!!LO:LB:g=original
=182	=182	=182	=182
8cL 8G 8E\	4gg\	.	.
8cJ 8G 8E\	.	.	.
8AL 8F 8D\	16ff\LL	.	.
.	16ee\	.	.
8AJ 8F 8D\	16dd\	.	.
.	16aa\JJ	.	.
=183	=183	=183	=183
8AL 8E 8C\	4ee\	.	.
8AJ 8E 8C\	.	.	.
8G#XL 8E 8BB\	16ee\LL	.	.
.	16ff\	.	.
8G#J 8E 8BB\	16ee\	.	.
.	16dd\JJ	.	.
=184	=184	=184	=184
8AL 8E 8AA\	16cc\LL	.	.
.	16b\	.	.
8AJ 8E 8AA\	16a\	.	.
.	16b\JJ	.	.
8d#XL 8A 8F#X\	16cc\LL	.	.
.	16b\	.	.
8d#J 8A 8F#\	16cc\	.	.
.	16a\JJ	.	.
=185	=185	=185	=185
8e 8c 8G\	(16g\LL	.	.
.	16cc\	.	.
8r	16ee\	.	.
.	16gg\JJ)	.	.
8G 8D 8GG\	(16ggLL 16b\	.	.
.	16ff\)	.	.
.	8qff/	.	.
8r	(16ee\	.	.
.	16dd\JJ	.	.
!!LO:PB:g=original
=186	=186	=186	=186
8C/	8cc\)	.	.
8r	8r	.	.
*	*ped	*	*
8.CL 8.GG 8.CC/	8.cccL 8.gg 8.ee 8.cc\	.	ff
16CJk 16GG 16CC/	16cccJk 16gg 16ee 16cc\	.	.
=187	=187	=187	=187
4..C 4..GG 4..CC^^/	4..ccc 4..gg 4..ee 4..cc^^\	.	.
16c 16G 16E\	16cc 16g/	.	.
=188	=188	=188	=188
*	*^	*	*
*	*Xped	*	*	*
8c 8G 8E\	8cc 8g/	4rcyy	.	.
8r	8r	.	.	.
8.cL 8.E\	8.cc/L	8.g\L	.	mf
16cJk 16E\	16cc/Jk	16g\Jk	.	.
=189	=189	=189	=189	=189
4c 4F\	4dd/	4cc 4a\	.	.
(8.D^\L	8.ffL 8.dd^\	4rcyy	.	.
32E\LL	16eeJk 16cc\	.	.	.
32F\JJJ	.	.	.	.
*	*v	*v	*	*
=190	=190	=190	=190
8G\)	8dd 8b\	.	.
8r	8r	.	.
*	*ped	*	*
8.CL 8.GG 8.CC/	8.cccL 8.gg 8.ee 8.cc\	.	ff
16CJk 16GG 16CC/	16cccJk 16gg 16ee 16cc\	.	.
!!LO:LB:g=original
=191	=191	=191	=191
4..C 4..GG 4..CC^^/	4..ccc 4..gg 4..ee 4..cc^^\	.	.
16c 16G 16E\	16cc 16g/	.	.
=192	=192	=192	=192
*	*Xped	*	*
8c 8G 8E\	8cc 8g/	.	.
8r	8r	.	.
8.cL 8.E\	8.ccL 8.g/	.	mf
16cJk 16E\	16ccJk 16g/	.	.
=193	=193	=193	=193
*	*^	*	*
4c 4F\	4dd 4a\	4rcyy	.	.
(4d 4B-X 4D\	(8.ff^/L	4b-X 4f\	.	.
.	32ee/LL	.	.	.
.	32dd/JJJ)	.	.	.
=194	=194	=194	=194	=194
8c 8E\)	8cc/	8g\	.	.
8r	8r	8rcyy	.	.
*	*ped	*	*	*
8.FL 8.C 8.FF/	8.fffL 8.aa 8.ff\	4rcyy	.	ff
16FJk 16C 16FF/	16fffJk 16aa 16ff\	.	.	.
*	*v	*v	*	*
=195	=195	=195	=195
4..F 4..C 4..FF^^/	4..fff 4..aa 4..ff^^\	.	.
*clefG2	*	*	*
16a 16f 16c 16A/	16ff 16cc\	.	.
!!LO:LB:g=original
=196	=196	=196	=196
*	*Xped	*	*
8a 8f 8c 8A/	8ff 8cc\	.	.
8r	8r	.	.
8.fL 8.A/	8.ffL 8.cc\	.	mf
16fJk 16A/	16ffJk 16cc\	.	.
=197	=197	=197	=197
4f 4B-X/	4gg 4ff 4dd\	.	.
(8.G^/L	8.bb-XL 8.gg^\	.	.
32A/LL	16aaJk 16ff\	.	.
32B-/JJJ	.	.	.
=198	=198	=198	=198
8c/)	8gg 8ee\	.	.
8r	8r	.	.
*clefF4	*ped	*	*
8.AL 8.F 8.C 8.AA\	8.fffL 8.ccc 8.ff\	.	ff
16AJk 16F 16C 16AA\	16fffJk 16ccc 16ff\	.	.
=199	=199	=199	=199
4..A 4..F 4..C 4..AA^^\	4..fff 4..ccc 4..ff^^\	.	.
*clefG2	*	*	*
16a 16f 16c 16A/	16ff 16cc\	.	.
=200	=200	=200	=200
*	*Xped	*	*
8a 8f 8c 8A/	8ff 8cc\	.	.
8r	8r	.	.
8.fL 8.A/	8.ffL 8.cc\	.	mf
16fJk 16A/	16ffJk 16cc\	.	.
!!LO:LB:g=original
=201	=201	=201	=201
4f 4B-X/	4gg 4ff 4dd\	.	.
(8.G^/L	8.bb-XL 8.gg^\	.	.
32A/LL	16aaJk 16ff\	.	.
32B-/JJJ	.	.	.
=202	=202	=202	=202
8c/)	8gg 8ee\	.	.
8r	8r	.	.
16d-X^/LL	8ggL 8ee 8b-X'\	.	f
16c/	.	.	.
16B-X/	8ggJ 8ee 8b-'\	.	.
16c/JJ	.	.	.
=203	=203	=203	=203
16d-X^/LL	8ggL 8ee 8b-X'\	.	.
16c/	.	.	.
16B-X/	8gg 8ee 8b-'\	.	.
16c/JJ	.	.	.
16d-/LL	8gg 8ee 8b-'\	.	.
16c/	.	.	.
16B-/	8ggJ 8ee 8b-'\	.	.
16c/JJ	.	.	.
=204	=204	=204	=204
*^	*	*	*
!	!	!	!	!LO:DY:b=2
8d-X'/L	4rcyy	4gg 4ee 4b-X\	.	sf
8D-X'/J	.	.	.	.
8bnL 8f'/	(4d-\	16aa-X'\LL	.	p
.	.	16gg'\	.	.
8bJ 8f'/	.	16ff'\	.	.
.	.	16gg'\JJ	.	.
=205	=205	=205	=205	=205
8ccL 8f'/	4c\	16aa-X'\LL	.	.
.	.	16gg'\	.	.
8ccJ 8f'/	.	16ff'\	.	.
.	.	16gg'\JJ	.	.
8a-XL 8dn'/	4Bn\	16aa-'\LL	.	.
.	.	16gg'\	.	.
8a-J 8d'/	.	16aa-'\	.	.
.	.	16ff'\JJ	.	.
!!LO:LB:g=original
=206	=206	=206	=206	=206
8a-XL 8f/	8c\)	8ccc'\L	.	sf
8a-J 8f/	8rc	8cc'\J	.	.
16e-X^/LL	4rcyy	8aanL 8ff#X 8cc'\	.	f
16d/	.	.	.	.
16c/	.	8aaJ 8ff# 8cc'\	.	.
16d/JJ	.	.	.	.
*v	*v	*	*	*
=207	=207	=207	=207
16e-X^/LL	8aaL 8ff#X 8cc'\	.	.
16d/	.	.	.
16c/	8aa 8ff# 8cc'\	.	.
16d/JJ	.	.	.
16e-/LL	8aa 8ff# 8cc'\	.	.
16d/	.	.	.
16c/	8aaJ 8ff# 8cc'\	.	.
16d/JJ	.	.	.
=208	=208	=208	=208
*^	*	*	*
8e-X/L	4rcyy	8aa 8ff#X 8cc\	.	.
8E-X/J	.	8r	.	.
8cc#XL 8g'/	(4e-\	16bb-X'\LL	.	p
.	.	16aa'\	.	.
8cc#J 8g'/	.	16gg'\	.	.
.	.	16aa'\JJ	.	.
=209	=209	=209	=209	=209
8ddL 8g'/	4d\	16bb-X'\LL	.	.
.	.	16aa'\	.	.
8ddJ 8g'/	.	16gg'\	.	.
.	.	16aa'\JJ	.	.
8b-XL 8g'/	4c#X\)	16bb-'\LL	.	.
.	.	16aa'\	.	.
8b-J 8g'/	.	16bb-'\	.	.
.	.	16gg'\JJ	.	.
*v	*v	*	*	*
!!LO:PB:g=original
=210||	=210||	=210||	=210||
*k[f#c#]	*k[f#c#]	*	*
*D:	*D:	*	*
16d/LL	4ddd\	.	.
16a/	.	.	.
!	!LO:TX:b:i:t=molto dolce	!	!
16A/	.	.	.
16d/JJ	.	.	.
*clefF4	*	*	*
16ALL 16F#\	(8aa\L	.	.
16d\	.	.	.
16A 16F#\	8ddd\J	.	.
16d\JJ	.	.	.
=211	=211	=211	=211
16ALL 16G\	8aa\L	.	.
16c#\	.	.	.
16A 16G\	16gg\L	.	.
16c#\JJ	16ff#\JJ	.	.
16ALL 16G\	8ee\L	.	.
16c#\	.	.	.
16A 16G\	8bb\J	.	.
16c#\JJ	.	.	.
=212	=212	=212	=212
16ALL 16F#\	4aa\)	.	.
16d\	.	.	.
16A 16F#\	.	.	.
16d\JJ	.	.	.
16ALL 16F#\	(8aa\L	.	.
16d\	.	.	.
16A 16F#\	8ddd\J	.	.
16d\JJ	.	.	.
=213	=213	=213	=213
16ALL 16G\	8aaT\L	.	.
16c#\	.	.	.
16A 16G\	16gg\L	.	.
16c#\JJ	16ff#\JJ	.	.
16ALL 16G\	8ee\L	.	.
16c#\	.	.	.
16A 16G\	8bb\J	.	.
16c#\JJ	.	.	.
!!LO:LB:g=original
=214	=214	=214	=214
16ALL 16F#\	4aa\)	.	.
16d\	.	.	.
16A 16F#\	.	.	.
16d\JJ	.	.	.
16ALL 16Fn\	(8aa\L	.	<
16d\	.	.	.
16A 16F\	8aa#X\J	.	.
16d\JJ	.	.	.
=215	=215	=215	=215
16G#XLL 16E\	8bb\L	.	.
16d\	.	.	.
.	8qccc#/	.	.
16G# 16E\	16bb\L	.	.
16d\JJ	16aa#X\JJ	.	.
16GnLL 16E\	8bb\L	.	[
16A\	.	.	.
16G 16E\	8ccc#\J	.	.
16A\JJ	.	.	.
=216	=216	=216	=216
16F#LL 16D\	4ddd\)	.	>
16A\	.	.	.
16F# 16D\	.	.	.
16A\JJ	.	.	.
16dLL 16G#X\	(8bb\L	.	]
16e\	.	.	.
16d 16G#\	8ddd\J	.	.
16e\JJ	.	.	.
=217	=217	=217	=217
16dLL 16A\	8.aa\L	.	.
16e\	.	.	.
16d 16A\	.	.	.
16e\JJ	32bb\LL	.	.
.	32aa\JJJ	.	.
16BLL 16A\	8gg\L	.	.
16d\	.	.	.
16c# 16A\	8ee\J	.	.
16e\JJ	.	.	.
!!LO:LB:g=original
=218	=218	=218	=218
16D\LL	4dd\)	.	.
16d\	.	.	.
16A\	.	.	.
16d\JJ	.	.	.
16G\LL	(8dd\L	.	.
16d\	.	.	.
16B\	8gg\J	.	.
16G\JJ	.	.	.
=219	=219	=219	=219
16GG\LL	8dd\L	.	.
16B\	.	.	.
16D\	16ccn\L	.	.
16B\JJ	16b\JJ	.	.
16GG\LL	8a/L	.	.
16B\	.	.	.
16D\	8g/J	.	.
16B\JJ	.	.	.
=220	=220	=220	=220
16D\LL	4dd\)	.	.
16A\	.	.	.
16F#\	.	.	.
16A\JJ	.	.	.
16GG\LL	(8dd\L	.	.
16B\	.	.	.
16D\	8gg\J	.	.
16B\JJ	.	.	.
=221	=221	=221	=221
16GG\LL	8dd\L	.	.
16B-X\	.	.	.
16D\	16ccn\L	.	.
16B-\JJ	16b-X\JJ	.	.
.	8qb-/	.	.
16GG\LL	8a/L	.	.
16G\	.	.	.
16D\	8g/J	.	.
16B-\JJ	.	.	.
!!LO:LB:g=original
=222	=222	=222	=222
16D\LL	4a/)	.	.
16d\	.	.	.
16A\	.	.	.
16d\JJ	.	.	.
!	!LO:TX:b:i:t=dolcissimo	!	!
16F#\LL	8aa'\L	.	.
16d\	.	.	.
16A\	8bb'\J	.	.
16d\JJ	.	.	.
=223	=223	=223	=223
16G\LL	(8ccc#\L	.	.
16e\	.	.	.
16A\	16bb\L	.	.
16e\JJ	16aa\JJ)	.	.
16G\LL	8bb\L	.	.
16e\	.	.	.
16A\	8ccc#\J	.	.
16e\JJ	.	.	.
=224	=224	=224	=224
16F#\LL	4ddd^\	.	.
16d\	.	.	.
16A\	.	.	.
16d\JJ	.	.	.
16G\LL	(8bb\L	.	.
16d\	.	.	.
16B\	8ddd\J)	.	.
16d\JJ	.	.	.
=225	=225	=225	=225
16A\LL	(8aa\L	.	.
16f#\	.	.	.
16d\	16bb\L	.	.
16f#\JJ	16aa\JJ)	.	.
16BLL 16A\	8gg\L	.	.
16d\	.	.	.
16c# 16A\	8ee\J	.	.
16e\JJ	.	.	.
!!LO:LB:g=original
=226	=226	=226	=226
16d\LL	(8bb^\L	.	.
16f#\	.	.	.
16d\	8aa\J)	.	.
16f#\JJ	.	.	.
16c#LL 16A\	8aa'\L	.	<
16e\	.	.	.
16c# 16A\	8aa#X'\J	.	.
16e\JJ	.	.	.
=227	=227	=227	=227
16BLL 16G#X\	8bb\L	.	.
16e\	.	.	.
.	8qccc#/	.	.
16B 16G#\	(16bb\L	.	.
16e\JJ	16aa#X\JJ	.	.
16ALL 16Gn\	8bb\L)	.	[
16e\	.	.	.
16A 16G\	8ccc#\J	.	.
16e\JJ	.	.	.
=228	=228	=228	=228
16F#\LL	8.ddd\L	.	mf >
16d\	.	.	.
16A\	.	.	.
16d\JJ	16fff#\Jk	.	.
16G#X\LL	16eee\LL	.	.
16e\	16ddd\	.	.
16B\	16ccc#\	.	.
16e\JJ	16bb\JJ	.	.
=229	=229	=229	=229
16A\LL	8.aa\L	.	.
16f#\	.	.	.
16d\	.	.	.
16f#\JJ	16ff#\Jk	.	.
.	8qaa/	.	.
16A\LL	16gg\LL	.	.
16e\	16ff#\	.	.
16A\	16gg\	.	.
16c#\JJ	16ee\JJ	.	]
=230	=230	=230	=230
8D'\	8dd\	.	.
8dL 8A 8F#'\	8r	.	p
!	!LO:TX:a:i:t=scherzando	!	!
8d 8A 8F#'\	(16ff#\LL	.	.
.	16aa\	.	.
8dJ 8A 8F#'\	16ff#\	.	.
.	16dd\JJ)	.	.
!!LO:PB:g=original
=231	=231	=231	=231
8D'\	8a'/L	.	.
8dL 8A 8F#'\	8a'/J	.	.
8d 8A 8F#'\	(16ff#\LL	.	.
.	16aa\	.	.
8dJ 8A 8F#'\	16ff#\	.	.
.	16dd\JJ)	.	.
=232	=232	=232	=232
8D'\	8a'/L	.	.
8dL 8A 8F#'\	8a'/J	.	.
8d 8A 8F#'\	(16ff#\LL	.	.
.	16aa\	.	.
8dJ 8A 8F#'\	16ff#\	.	.
.	16dd\JJ)	.	.
=233	=233	=233	=233
8F#'\L	8a\L	.	.
8dJ 8A'\	16b\L	.	.
.	16cc#\JJ	.	.
.	8qee/	.	.
8D'\L	16dd\LL	.	.
.	16cc#\	.	.
8f#J 8A'\	16dd\	.	.
.	16dd#X\JJ	.	.
=234	=234	=234	=234
(8G^\L	4ee\	.	.
16F#\L	.	.	.
16E\JJ	.	.	.
8D#X'\L)	(16bb\LL	.	.
.	16cccn\	.	.
8f#J 8B'\	16bb\	.	.
.	16aa\JJ)	.	.
!!LO:LB:g=original
=235	=235	=235	=235
*^	*	*	*
8E'\L	4rEEyy	8gg'\L	.	.
8eJ 8B'\	.	8gg'\J	.	.
8AA#X'/L	(<4AA#\	(16ff#\LL	.	.
.	.	16gg\	.	.
8c#J 8F#'/	.	16ff#\	.	.
.	.	16ee\JJ)	.	.
*v	*v	*	*	*
=236	=236	=236	=236
8BB'\L)	16dd\LL	.	.
.	16cc#\	.	.
8BJ 8F#'\	16b\	.	.
.	16cc#\JJ	.	.
8G'\L	16dd\LL	.	.
.	16cc#\	.	.
8dJ 8B'\	16dd\	.	.
.	16ee\JJ	.	.
=237	=237	=237	=237
8A'\L	16ff#\LL	.	.
.	16ee\	.	.
8f#J 8d'\	16ff#\	.	.
.	16gg\JJ	.	.
8A'\L	16aa\LL	.	.
.	16bb\	.	.
8eJ 8c#'\	16aa\	.	.
.	16gg\JJ	.	.
=238	=238	=238	=238
8D\	8ff#\	.	.
8dL 8A 8F#\	8r	.	.
8d 8A 8F#\	(16ff#\LL	.	.
.	16aa\	.	.
8dJ 8A 8F#\	16ff#\	.	.
.	16dd\JJ)	.	.
!!LO:LB:g=original
=239	=239	=239	=239
8D\	8a'/L	.	.
!	!LO:TX:b:t=cre-scen-do:ext=ud:problem:text with extention lines	!	!
8dL 8A 8F#\	8a'/J	.	<
8d 8A 8F#\	(16ff#\LL	.	.
.	16aa\	.	.
8dJ 8A 8F#\	16ff#\	.	.
.	16dd\JJ)	.	.
=240	=240	=240	=240
8D\	8a'/L	.	.
8dL 8A 8F#\	8a'/J	.	.
8d 8A 8F#\	(16ff#\LL	.	.
.	16aa\	.	.
8dJ 8A 8F#\	16ff#\	.	.
.	16dd\JJ)	.	.
=241	=241	=241	=241
8F#\L	8a\L	.	.
8dJ 8A\	16b\L	.	.
.	16cc#\JJ	.	.
.	8qee/	.	.
8D\L	16dd\LL	.	.
.	16cc#\	.	.
8f#J 8A\	16dd\	.	.
.	16dd#X\JJ	.	.
=242	=242	=242	=242
(8G^\L	4ee\	.	.
16F#\L	.	.	.
16E\JJ	.	.	.
8D#X'\L)	(16bb\LL	.	.
.	16cccn\	.	.
8f#J 8B'\	16bb\	.	.
.	16aa\JJ)	.	.
!!LO:LB:g=original
=243	=243	=243	=243
*^	*	*	*
8E'\L	4rEEyy	8gg'\L	.	.
8eJ 8B'\	.	8gg'\J	.	.
8AA#X/L	(4AA#\	(16ff#\LL	.	.
.	.	16gg\	.	.
8c#J 8F#/	.	16ff#\	.	.
.	.	16ee\JJ)	.	[[
*v	*v	*	*	*
=244	=244	=244	=244
8BB'\L)	16dd\LL	.	.
.	16cc#\	.	.
8dJ 8F#'\	16b\	.	.
.	16cc#\JJ	.	.
8BB-X'\L	16dd\LL	.	.
.	16cc#\	.	.
8dJ 8G'\	16dd\	.	.
.	16ee\JJ	.	.
=245	=245	=245	=245
8AA\L	16ff#\LL	.	<
.	16ee\	.	.
8dJ 8A 8F#\	16ff#\	.	.
.	16gg\JJ	.	.
8AA\L	16aa\LL	.	.
.	16bb\	.	.
8AJ 8E\	16bb#X\	.	.
.	16ccc#\JJ	.	[
=246	=246	=246	=246
(16BB-X\LL	8ddd\	.	f
16B-X\	.	.	.
16BB-\	8r	.	.
16B-\JJ	.	.	.
16FFn/LL	8.dddL 8.ffn 8.dd\	.	.
16Fn/	.	.	.
16FF/	.	.	.
16F/JJ	16dddJk 16ff 16dd\	.	.
!!LO:LB:g=original
=247	=247	=247	=247
16GG\LL	4..ddd 4..ffn 4..dd^^\	.	.
16G\	.	.	.
16GG\	.	.	.
16G\JJ	.	.	.
16AA\LL	.	.	.
16A\	.	.	.
16AA\	.	.	.
16A\JJ)	16dd 16d/	.	.
=248	=248	=248	=248
(16BB-X\LL	4dd 4d/	.	.
16B-X\	.	.	.
16BB-\	.	.	.
16B-\JJ	.	.	.
16FFn/LL	8.dddL 8.ffn 8.dd\	.	.
16Fn/	.	.	.
16FF/	.	.	.
16F/JJ	16dddJk 16ff 16dd\	.	.
=249	=249	=249	=249
16GG\LL	4..ddd 4..ffn 4..dd^^\	.	.
16G\	.	.	.
16GG\	.	.	.
16G\JJ	.	.	.
16AA\LL	.	.	.
16A\	.	.	.
16AA\	.	.	.
16A\JJ)	16dd 16d/	.	.
=250	=250	=250	=250
(16BB-X\LL	4dd 4d/	.	.
16B-X\	.	.	.
16BB-\	.	.	.
16B-\JJ	.	.	.
16FF#X/LL	8.dddL 8.bb-X 8.dd\	.	.
16F#X/	.	.	.
16FF#/	.	.	.
16F#/JJ	16dddJk 16bb- 16dd\	.	.
!!LO:PB:g=original
=251	=251	=251	=251
16GG\LL	4.ddd 4.bb-X 4.dd^^\	.	.
16G\	.	.	.
16GG\	.	.	.
16G\JJ	.	.	.
16AA\LL	.	.	.
16A\	.	.	.
16AA\	8dd 8d/	.	.
16A\JJ)	.	.	.
=252	=252	=252	=252
(16BB-X\LL	4dd 4d/	.	.
16B-X\	.	.	.
16BB-\	.	.	.
16B-\JJ	.	.	.
16GG\LL	8.eeL 8.dd 8.b-X\	.	.
16G\	.	.	.
16GG\	.	.	.
16G\JJ	16eeJk 16dd 16b-\	.	.
=253	=253	=253	=253
16AA\LL	4ff# 4dd 4ccn 4a\	.	.
16A\	.	.	.
16AA\	.	.	.
16A\JJ	.	.	.
16BB-X\LL	4gg 4ee 4dd 4g\	.	.
16B-X\	.	.	.
16BB-\	.	.	.
16B-\JJ)	.	.	.
=254	=254	=254	=254
8cn 8Cn\	8aaL 8ff# 8dd 8a\	.	.
8r	8aaJ 8ff# 8dd\	.	ff
16c^\LL	8dddL 8ff# 8dd'\	.	.
16B\	.	.	.
16A\	8aaJ 8ff# 8dd'\	.	.
16B\JJ	.	.	.
!!LO:LB:g=original
=255	=255	=255	=255
16cn^\LL	8dddL 8ff# 8dd'\	.	.
16B\	.	.	.
16A\	8aaJ 8ff# 8dd'\	.	.
16B\JJ	.	.	.
16c^\LL	8dddL 8ff# 8dd'\	.	.
16B\	.	.	.
16A\	8aaJ 8ff# 8dd'\	.	.
16B\JJ	.	.	.
=256	=256	=256	=256
4cn^\	8ddd 8ff# 8dd\	.	.
.	8r	.	.
*clefG2	*	*	*
4b 4e#X 4d 4G#X^/	16eee^\LL	.	.
.	16ddd\	.	.
.	16ccc#X\	.	.
.	16ddd\JJ	.	.
=257	=257	=257	=257
4ccn 4f# 4d 4A^/	16eee^\LL	.	.
.	16ddd\	.	.
.	16ccc#X\	.	.
.	16ddd\JJ	.	.
4g#X 4d 4B^/	16eee^\LL	.	.
.	16ddd\	.	.
.	16cccn\	.	.
.	16bb\JJ	.	.
=258	=258	=258	=258
4a 4f# 4d 4cn/	8ddd\	.	.
.	8aaL 8ff# 8dd'\	.	.
16c^/LL	8ddd 8ff# 8dd'\	.	.
16B/	.	.	.
16A/	8aaJ 8ff# 8dd'\	.	.
16B/JJ	.	.	.
!!LO:LB:g=original
=259	=259	=259	=259
16cn^/LL	8dddL 8ff# 8dd'\	.	.
16B/	.	.	.
16A/	8aaJ 8ff# 8dd'\	.	.
16B/JJ	.	.	.
16c^/LL	8dddL 8ff# 8dd'\	.	.
16B/	.	.	.
16A/	8aaJ 8ff# 8dd'\	.	.
16B/JJ	.	.	.
=260	=260	=260	=260
4cn/	4ddd 4ff# 4dd\	.	.
4b 4e#X 4d 4G#X^/	16eee^\LL	.	.
.	16ddd\	.	.
.	16ccc#X\	.	.
.	16ddd\JJ	.	.
=261	=261	=261	=261
4ccn 4f# 4d 4A^/	16eee^\LL	.	.
.	16ddd\	.	.
.	16ccc#X\	.	.
.	16ddd\JJ	.	.
4g#X 4d 4B^/	16eee^\LL	.	.
.	16ddd\	.	.
.	16cccn\	.	.
.	16bb\JJ	.	.
=262	=262	=262	=262
8aL 8f# 8cn'/	8ddd'\	.	.
8e#X 8d 8G#X'/	16ccc#X\LL	.	.
.	16ddd\JJ	.	.
8f# 8d 8A'/	16eee^\LL	.	.
.	16ddd\	.	.
8g#XJ 8d 8B'/	16ccc#\	.	.
.	16ddd\JJ	.	.
!!LO:LB:g=original
=263	=263	=263	=263
8aL 8f# 8cn'/	16eee^\LL	.	.
.	16ddd\	.	.
8e#X 8d 8G#X'/	16ccc#\	.	.
.	16ddd\JJ	.	.
8f# 8d 8A'/	16eee^\LL	.	.
.	16ddd\	.	.
8g#XJ 8d 8B'/	16ccc#\	.	.
.	16ddd\JJ	.	.
=264	=264	=264	=264
4a 4f# 4d 4cn^/	16eee^\LL	.	.
.	16ddd\	.	.
.	16aa\	.	.
.	16ddd\JJ	.	.
4a 4g 4c#X^/	16fff#^\LL	.	.
.	16eee\	.	.
.	16ddd\	.	.
.	16eee\JJ	.	.
=265	=265	=265	=265
4a 4f# 4d^/	16ggg^\LL	.	.
.	16fff#\	.	.
.	16eee\	.	.
.	16ddd\JJ	.	.
4e 4d 4G^/	16eee^\LL	.	.
.	16ddd\	.	.
.	16ccc#\	.	.
.	16bb\JJ	.	.
!!LO:LB:g=original
=266	=266	=266	=266
8f# 8d 8A^/	16aa^\LL	.	.
.	16a\	.	.
*clefF4	*	*	*
16BB/LL	16b\	.	.
16C#/JJ	16cc#\JJ	.	.
16D\LL	16dd\LL	.	.
16E\	16ee\	.	.
16F#\	16ff#\	.	.
16G\JJ	16gg\JJ	.	.
=267	=267	=267	=267
16F#\LL	16ff#\LL	.	.
16G\	16gg\	.	.
16A\	16aa\	.	.
16B\JJ	16bb\JJ	.	.
*clefG2	*	*	*
16c#/LL	16ccc#\LL	.	.
16d/	16ddd\	.	.
16e/	16eee\	.	.
16f#/JJ	16fff#\JJ	.	.
=268	=268	=268	=268
*	*8va	*	*
8g'/L	8gggL 8gg'\	.	.
8g#X'/	8ggg#X 8gg#X'\	.	.
8a'/	8aaa 8aa'\	.	.
8a#X'/J	8aaa#XJ 8aa#X'\	.	.
=269	=269	=269	=269
8b\	8bbb 8bb\	.	.
*	*X8va	*	*
8r	8r	.	.
*clefF4	*	*	*
8B 8F# 8BB\	8bb 8ff# 8dd#X 8b\	.	.
8r	8r	.	.
!!LO:PB:g=original
=270	=270	=270	=270
*	*ped	*	*
8E 8EE/	[4bb 4ee 4b^^\	.	.
16dnLL 16B 16G#X 16E\	.	.	.
16dJJ 16B 16G# 16E\	.	.	.
*	*Xped	*	*
8d 8B 8G# 8E\	16bb\LL]	.	.
.	16gg#X\	.	.
.	8qgg#/	.	.
8r	16ff#\	.	.
.	16ee\JJ	.	.
=271	=271	=271	=271
*	*ped	*	*
8GG#X 8GGG#X/	[4eee 4ee^^\	.	.
16dLL 16B 16E\	.	.	.
16dJJ 16B 16E\	.	.	.
*	*Xped	*	*
8d 8B 8E\	16eee\LL]	.	.
.	16ddd\	.	.
8r	16ccc#\	.	.
.	16ddd\JJ	.	.
=272	=272	=272	=272
*	*ped	*	*
8AA 8AAA/	[4fff# 4ff#^^\	.	.
16dLL 16A 16F#\	.	.	.
16dJJ 16A 16F#\	.	.	.
*	*Xped	*	*
8d 8A 8F#\	16fff#\LL]	.	.
.	16ddd\	.	.
8r	16aa\	.	.
.	16bb\JJ	.	.
=273	=273	=273	=273
*	*ped	*	*
8A 8AA\	[4ddd 4aa 4ee^^\	.	.
16eLL 16c# 16A\	.	.	.
16eJJ 16c# 16A\	.	.	.
*	*Xped	*	*
8e 8c# 8A\	16ddd\LL]	.	.
.	16ccc#\	.	.
8A 8AA\	16bb\	.	.
.	16ccc#\JJ	.	.
!!LO:LB:g=original
=274	=274	=274	=274
*	*8va	*below	*
*	*^	*	*
16DLL 16GG#X^^\	2bbb/	16ddd\LL	1	ff
16G#X\	.	16ccc#\	2	.
16D 16GG#\	.	16bb\	1	.
16G#\JJ	.	16ccc#\JJ	2	.
16DLL 16GG#\	.	16ddd\LL	1	.
16G#\	.	16ccc#\	2	.
16D 16GG#\	.	16bb\	1	.
16G#\JJ	.	16ccc#\JJ	2	.
=275	=275	=275	=275	=275
16DLL 16AA^^\	2aaa^^/	16ddd\LL	1	.
16A\	.	16ccc#\	2	.
16D 16AA\	.	16bb\	1	.
16A\JJ	.	16ccc#\JJ	2	.
16DLL 16AA\	.	16ddd\LL	1	.
16A\	.	16ccc#\	2	.
16D 16AA\	.	16bb\	1	.
16A\JJ	.	16ccc#\JJ	2	.
=276	=276	=276	=276	=276
8BL 8D 8BB^^\	8ggg#X^^/L	16ddd\LL	.	.
.	.	16ccc#\	.	.
8B-X 8D 8BB-X^^\	8gggn^^/	16bb#X\	.	.
.	.	16ccc#\JJ	.	.
8A 8D 8AA^^\	8fff#^^/	16ddd\LL	.	.
.	.	16ccc#\	.	.
8A-XJ 8D 8AA-X^^\	8fffn^^/J	16bb#\	.	.
.	.	16ccc#\JJ	.	.
=277	=277	=277	=277	=277
4G 4D 4GG^^/	4eee^^/	16ddd\LL	.	.
.	.	16ccc#\	.	.
.	.	16bb#X\	.	.
.	.	16ccc#\JJ	.	.
4G#X 4D 4GG#X^^/	4eee#X^^/	16ddd\LL	.	.
.	.	16ccc#\	.	.
.	.	16bb#\	.	.
.	.	16ccc#\JJ	.	.
!!LO:LB:g=original
=278	=278	=278	=278	=278
*	*ped	*	*	*
8A 8AA^^\	8fff#^^/	8ddd\	.	.
16dLL 16A 16F#\	8raa	8rcyy	.	.
16dJJ 16A 16F#\	.	.	.	.
8dL 8A 8F#\	(16fff#\LL	4rcyy	.	.
.	16aaa\	.	.	.
8dJ 8A 8F#\	16fff#\	.	.	.
.	16ddd\JJ)	.	.	.
*	*v	*v	*	*
=279	=279	=279	=279
8A 8AA\	8aa'/L	.	.
16dLL 16A 16F#\	8aa'/J	.	.
16dJJ 16A 16F#\	.	.	.
*	*X8va	*	*
8dL 8A 8F#\	(16ff#\LL	.	.
.	16aa\	.	.
8dJ 8A 8F#\	16ff#\	.	.
.	16dd\JJ)	.	.
=280	=280	=280	=280
8A 8AA\	8a'/L	.	.
16dLL 16A 16F#\	8a'/J	.	.
16dJJ 16A 16F#\	.	.	.
8dL 8A 8F#\	(16f#\LL	.	.
.	16a\	.	.
8dJ 8A 8F#\	16dd\	.	.
.	16ff#\JJ	.	.
=281	=281	=281	=281
*	*Xped	*	*
8AA'\L	8aa\)	.	.
8dJ 8A 8F#'\	16dddLL 16aa 16dd'\	.	.
.	16dddJJ 16aa 16dd'\	.	.
8AA'\L	8eeeL 8aa 8ee'\	.	.
8c#J 8A 8E'\	8aaJ 8ee'\	.	.
!!LO:LB:g=original
=282	=282	=282	=282
*	*ped	*	*
8D 8DD/	4fff# 4aa 4ff#^^\	.	.
16dLL 16A 16F#\	.	.	.
16dJJ 16A 16F#\	.	.	.
8dL 8A 8F#\	(16fff#\LL	.	.
.	16aaa\	.	.
8dJ 8A 8F#\	16fff#\	.	.
.	16ddd\JJ)	.	.
=283	=283	=283	=283
8D 8DD/	8aa'\L	.	.
16dLL 16A 16F#\	8aa'\J	.	.
16dJJ 16A 16F#\	.	.	.
8dL 8A 8F#\	(16ff#\LL	.	.
.	16aa\	.	.
8dJ 8A 8F#\	16ff#\	.	.
.	16dd\JJ)	.	.
=284	=284	=284	=284
8D 8DD/	8a'/L	.	.
16dLL 16A 16F#\	8a'/J	.	.
16dJJ 16A 16F#\	.	.	.
8dL 8A 8F#\	(16f#\LL	.	.
.	16a\	.	.
8dJ 8A 8F#\	16dd\	.	.
.	16ff#\JJ	.	.
=285	=285	=285	=285
*	*Xped	*	*
8a 8A\	8aa\L)	.	.
8F#L 8FF#'/	16fff#L 16ddd 16aa'\	.	.
.	16fff#JJ 16ddd 16aa'\	.	.
8G 8GG'/	8eeeL 8ddd 8bb'\	.	.
8AJ 8AA'/	8aaaJ 8ccc# 8aa'\	.	.
!!LO:PB:g=original
=286	=286	=286	=286
!LO:TX:t=P:problem:znak ^ pod główką nuty	!	!	!
8BL 8BB^^/	8fff#L 8ddd^^\	.	.
8F# 8FF#'/	16fff#L 16ddd 16aa'\	.	.
.	16fff#JJ 16ddd 16aa'\	.	.
8G 8GG'/	8eeeL 8ddd 8bb'\	.	.
8AJ 8AA'/	8aaaJ 8ccc# 8aa'\	.	.
=287	=287	=287	=287
!LO:TX:t=P:problem:znak ^ pod główką nuty	!	!	!
8BL 8BB^^/	8fff#L 8ddd^^\	.	.
8F# 8FF#'/	16fff#L 16ddd 16aa'\	.	.
.	16fff#JJ 16ddd 16aa'\	.	.
8G 8GG'/	8eeeL 8ddd 8bb'\	.	.
8AJ 8AA'/	8aaaJ 8ccc# 8aa'\	.	.
=288	=288	=288	=288
8B 8BB'\	8fff# 8ddd^^\	.	.
*	*8va	*	*
8G#XL 8GG#X^\	16bbbLL 16fffn 16ddd\	.	.
.	16bbbJJ 16fff 16ddd\	.	.
8AJ 8AA\	8aaaL 8eee 8ccc#\	.	.
8D#X 8DD#X^/L	8ccccnJ 8aaa 8fff#X 8cccn\	.	.
=289	=289	=289	=289
8E 8EE/J	8bbbL 8ggg 8eee 8bb^\	.	.
8r	(16ggg\L	.	.
.	16eee\JJ)	.	.
8A 8E 8AA\	8aaaL 8ccc#X\	.	.
8r	(16ggg\L	.	.
.	16eee\JJ)	.	.
!!LO:LB:g=original
=290	=290	=290	=290
8A 8F# 8D\	8ddd\	.	.
*	*X8va	*	*
8r	8r	.	.
8DL 8AA 8DD'/	8dddL 8ff# 8dd'\	.	ff
16DL 16AA 16DD'/	16dddL 16ff# 16dd'\	.	.
16DJJ 16AA 16DD'/	16dddJJ 16ff# 16dd'\	.	.
=291	=291	=291	=291
4D 4AA 4DD^^/	8.dddL 8.dd^^\	.	.
.	16aaJk 16ff#\	.	.
8DL 8AA 8DD'/	(16gg#XLL 16ee#X\	.	.
.	16aa 16ff#\	.	.
8DJ 8AA 8DD'/	16bb 16ggn\	.	.
.	16aaJJ 16ff#\)	.	.
=292	=292	=292	=292
8DL 8AA 8DD'/	8aaL 8ff#'\	.	.
8DJ 8AA 8DD'/	8ff#J 8dd'\	.	.
8DL 8AA 8DD'/	8aaL 8ff# 8dd 8a'\	.	.
16DL 16AA 16DD'/	16aaL 16ff# 16dd 16a'\	.	.
16DJJ 16AA 16DD'/	16aaJJ 16ff# 16dd 16a'\	.	.
=293	=293	=293	=293
4D 4AA 4DD^^/	8.aaL 8.ff# 8.dd 8.a^^\	.	.
.	16ff#\Jk	.	.
8DL 8AA 8DD'/	(16ee#X\LL	.	.
.	16ff#\	.	.
8DJ 8AA 8DD'/	16gg\	.	.
.	16ff#\JJ)	.	.
!!LO:LB:g=original
=294	=294	=294	=294
8DL 8AA 8DD'\	8ff#'\L	.	.
8d'\J	8dd'\J	.	.
(16c#\LL	(16cc#\LL	.	.
16d\	16dd\	.	.
16e\	16ee\	.	.
16d\JJ)	16dd\JJ)	.	.
=295	=295	=295	=295
8d'\L	8dd'\L	.	.
8A'\J	8a'\J	.	.
(16G#X\LL	(16g#X/LL	.	.
16A\	16a/	.	.
16B\	16b/	.	.
16A\JJ)	16a/JJ)	.	.
=296	=296	=296	=296
8F#\L	8f#\L	.	.
8d 8D\	16dd\L	.	.
.	16dd\J	.	.
8A\	8a\	.	.
8dJ 8D\	8ff#\J	.	.
=297	=297	=297	=297
8d\	8dd'\	.	.
(16f#LL 16F#\	(16ff#\LL	.	.
16A\JJ)	16aa\JJ)	.	.
8d'\L	8dddL 8dd'\	.	.
8f#'\J	8fff#J 8ff#'\	.	.
!!LO:LB:g=original
=298	=298	=298	=298
8D 8DD/	8d/	.	.
8r	8r	.	.
8f# 8d 8A 8F#\	8ddd 8aa 8ff# 8dd\	.	.
8r	8r	.	.
=299	=299	=299	=299
8D 8DD/	8d/	.	.
8r	8r	.	.
*clefG2	*	*	*
8ff# 8dd 8a 8f#\	8aaa 8fff# 8ddd 8aa\	.	.
8r	8r	.	.
*clefF4	*	*	*
=300	=300	=300	=300
4D 4DD/	4d/	.	.
8.r	8.r	.	.
16d 16A 16D\	16ddd 16aa 16ff# 16dd\	.	.
=301	=301	=301	=301
4d 4A 4D\	4ddd 4aa 4ff# 4dd\	.	.
8.r	8.r	.	.
16D 16DD/	16d/	.	.
=302	=302	=302	=302
2D 2DD;/	2d;/	.	.
==	==	==	==
*-	*-	*-	*-
!!!system-decoration: {(s1,s2)}
!!!RDF**kern: > = above
!!!RDF**kern: < = below
!!!RDF**kern: N = linked
!!!ENC: Mateusz Solarz
!!!END: 2022-09-22
!!!ENC: Katarzyna Serwa
!!!END: 2022-10-31
!!!YEC: Copyright 2022 Narodowy Instytut Fryderyka Chopina (https://polishscores.org)
!!!YEM: License CC-BY-4.0 (https://creativecommons.org/licenses/by/4.0)
